;FLAVOR:Marlin
;TIME:4580
;Filament used: 2.72928m
;Layer height: 0.15
;MINX:83.9
;MINY:76.4
;MINZ:0.3
;MAXX:136.1
;MAXY:143.6
;MAXZ:25.95
;Generated with Cura_SteamEngine 5.2.1
M140 S60
M105
M190 S60
M104 S210
M105
M109 S210
M82 ;absolute extrusion mode
G28 ;Home
G1 Z15.0 F2000 ;Move the platform
G92 E0
G92 E0
G1 F2400 E-3
;LAYER_COUNT:172
;LAYER:0
M107
M204 S1000
G0 F7500 X85.104 Y82.309 Z0.3
;TYPE:SKIRT
G1 F2400 E0
G1 F1500 X89.513 Y77.896 E0.31122
G1 X89.999 Y77.425 E0.34498
G1 X90.41 Y77.081 E0.37172
G1 X90.869 Y76.803 E0.3985
G1 X91.363 Y76.595 E0.42524
G1 X91.883 Y76.464 E0.45199
G1 X92.439 Y76.411 E0.47986
G1 X93.062 Y76.4 E0.51094
G1 X126.844 Y76.4 E2.19633
G1 X127.546 Y76.41 E2.23136
G1 X128.08 Y76.458 E2.25811
G1 X128.602 Y76.584 E2.2849
G1 X129.098 Y76.787 E2.31164
G1 X129.559 Y77.061 E2.33839
G1 X129.978 Y77.403 E2.36538
G1 X130.294 Y77.704 E2.38715
G1 X134.602 Y82.01 E2.69103
G1 X135.074 Y82.496 E2.72483
G1 X135.417 Y82.907 E2.75154
G1 X135.696 Y83.365 E2.77829
G1 X135.904 Y83.86 E2.80508
G1 X136.036 Y84.379 E2.8318
G1 X136.091 Y84.946 E2.86022
G1 X136.1 Y85.504 E2.88806
G1 X136.1 Y134.344 E5.3247
G1 X136.09 Y135.046 E5.35972
G1 X136.042 Y135.58 E5.38647
G1 X135.916 Y136.102 E5.41326
G1 X135.713 Y136.598 E5.44
G1 X135.439 Y137.059 E5.46676
G1 X135.129 Y137.443 E5.49138
G1 X134.896 Y137.691 E5.50836
G1 X130.495 Y142.096 E5.81901
G1 X130.001 Y142.575 E5.85334
G1 X129.589 Y142.918 E5.88009
G1 X129.131 Y143.197 E5.90684
G1 X128.637 Y143.404 E5.93356
G1 X128.117 Y143.536 E5.96033
G1 X127.56 Y143.589 E5.98824
G1 X126.938 Y143.6 E6.01928
G1 X93.156 Y143.6 E7.70467
G1 X92.455 Y143.59 E7.73965
G1 X91.92 Y143.542 E7.76645
G1 X91.399 Y143.416 E7.79319
G1 X90.903 Y143.213 E7.81993
G1 X90.442 Y142.939 E7.84668
G1 X90.066 Y142.637 E7.87074
G1 X89.809 Y142.396 E7.88832
G1 X85.396 Y137.986 E8.19957
G1 X84.925 Y137.5 E8.23334
G1 X84.581 Y137.089 E8.26008
G1 X84.303 Y136.63 E8.28685
G1 X84.095 Y136.136 E8.31359
G1 X83.964 Y135.616 E8.34034
G1 X83.911 Y135.06 E8.36821
G1 X83.9 Y134.438 E8.39925
G1 X83.9 Y85.656 E10.83299
G1 X83.91 Y84.954 E10.86802
G1 X83.958 Y84.42 E10.89477
G1 X84.084 Y83.898 E10.92156
G1 X84.287 Y83.402 E10.94829
G1 X84.561 Y82.941 E10.97505
G1 X84.871 Y82.557 E10.99967
G1 X85.104 Y82.309 E11.01665
G0 F7500 X85.387 Y82.592
G1 F1500 X89.791 Y78.183 E11.32755
G1 X90.277 Y77.712 E11.36131
G1 X90.667 Y77.39 E11.38655
G1 X91.102 Y77.133 E11.41175
G1 X91.573 Y76.948 E11.437
G1 X92.067 Y76.84 E11.46223
G1 X92.447 Y76.811 E11.48124
G1 X93.062 Y76.8 E11.51193
G1 X126.839 Y76.8 E13.19707
G1 X127.541 Y76.81 E13.2321
G1 X128.044 Y76.857 E13.2573
G1 X128.534 Y76.983 E13.28254
G1 X128.997 Y77.185 E13.30774
G1 X129.424 Y77.456 E13.33297
G1 X129.702 Y77.693 E13.3512
G1 X130.073 Y78.048 E13.37682
G1 X134.315 Y82.289 E13.67608
G1 X134.787 Y82.775 E13.70988
G1 X135.109 Y83.164 E13.73507
G1 X135.366 Y83.599 E13.76028
G1 X135.552 Y84.07 E13.78554
G1 X135.661 Y84.563 E13.81073
G1 X135.691 Y84.952 E13.8302
G1 X135.7 Y85.51 E13.85804
G1 X135.7 Y134.339 E16.29413
G1 X135.69 Y135.041 E16.32916
G1 X135.643 Y135.544 E16.35436
G1 X135.517 Y136.034 E16.3796
G1 X135.315 Y136.497 E16.4048
G1 X135.044 Y136.924 E16.43003
G1 X134.836 Y137.171 E16.44614
G1 X134.613 Y137.409 E16.46242
G1 X130.217 Y141.808 E16.77268
G1 X129.723 Y142.287 E16.80701
G1 X129.333 Y142.61 E16.83228
G1 X128.897 Y142.866 E16.8575
G1 X128.427 Y143.051 E16.8827
G1 X127.933 Y143.16 E16.90794
G1 X127.552 Y143.189 E16.927
G1 X126.938 Y143.2 E16.95764
G1 X93.161 Y143.2 E18.64278
G1 X92.46 Y143.19 E18.67776
G1 X91.957 Y143.143 E18.70296
G1 X91.467 Y143.017 E18.7282
G1 X91.004 Y142.815 E18.7534
G1 X90.577 Y142.543 E18.77866
G1 X90.337 Y142.343 E18.79425
G1 X90.091 Y142.113 E18.81105
G1 X85.683 Y137.708 E19.12195
G1 X85.212 Y137.222 E19.15572
G1 X84.89 Y136.832 E19.18095
G1 X84.633 Y136.397 E19.20616
G1 X84.448 Y135.926 E19.2314
G1 X84.34 Y135.432 E19.25663
G1 X84.311 Y135.052 E19.27564
G1 X84.3 Y134.438 E19.30628
G1 X84.3 Y85.661 E21.73978
G1 X84.31 Y84.959 E21.7748
G1 X84.357 Y84.456 E21.80001
G1 X84.483 Y83.966 E21.82525
G1 X84.685 Y83.503 E21.85045
G1 X84.956 Y83.076 E21.87568
G1 X85.164 Y82.829 E21.89179
G1 X85.387 Y82.592 E21.90803
G1 F2400 E18.90803
;MESH:Left foot.obj
G0 F7500 X87.153 Y84.407
G0 X92.75 Y139.4
;TYPE:WALL-INNER
G1 F2400 E21.90803
G1 F1500 X127.25 Y139.4 E23.62924
G1 X131.9 Y134.75 E23.95732
G1 X131.9 Y88.537 E26.2629
G1 X131.9 Y85.25 E26.42689
G1 X127.25 Y80.6 E26.75497
G1 X92.75 Y80.6 E28.47618
G1 X88.1 Y85.25 E28.80426
G1 X88.1 Y134.75 E31.27383
G1 X92.75 Y139.4 E31.60191
G0 F7500 X92.584 Y139.8
;TYPE:WALL-OUTER
G1 F1500 X127.416 Y139.8 E33.33969
G1 X132.3 Y134.916 E33.68428
G1 X132.3 Y88.537 E35.99814
G1 X132.3 Y85.084 E36.17041
G1 X127.416 Y80.2 E36.515
G1 X92.584 Y80.2 E38.25278
G1 X87.7 Y85.084 E38.59737
G1 X87.7 Y134.916 E41.0835
G1 X92.584 Y139.8 E41.42809
G0 F7500 X92.784 Y139.8
G0 X92.9 Y139.04
;TYPE:SKIN
G1 F1500 X127.1 Y139.04 E43.13433
G1 X131.54 Y134.6 E43.4476
G1 X131.54 Y85.4 E45.9022
G1 X127.1 Y80.96 E46.21546
G1 X92.9 Y80.96 E47.92171
G1 X88.46 Y85.4 E48.23498
G1 X88.46 Y134.6 E50.68957
G1 X92.9 Y139.04 E51.00284
G0 F7500 X92.716 Y139.223
G0 X88.315 Y134.822
G0 X88.659 Y134.479
G1 F1500 X93.018 Y138.839 E51.31043
G0 F7500 X93.584 Y138.839
G1 F1500 X88.659 Y133.914 E51.65791
G0 F7500 X88.659 Y133.348
G1 F1500 X94.149 Y138.839 E52.0453
G0 F7500 X94.715 Y138.839
G1 F1500 X88.659 Y132.782 E52.47261
G0 F7500 X88.659 Y132.216
G1 F1500 X95.281 Y138.839 E52.93987
G0 F7500 X95.846 Y138.839
G1 F1500 X88.659 Y131.651 E53.44698
G0 F7500 X88.659 Y131.085
G1 F1500 X96.412 Y138.839 E53.99404
G0 F7500 X96.978 Y138.839
G1 F1500 X88.659 Y130.519 E54.58102
G0 F7500 X88.659 Y129.954
G1 F1500 X97.543 Y138.839 E55.20787
G0 F7500 X98.109 Y138.839
G1 F1500 X88.659 Y129.388 E55.87465
G0 F7500 X88.659 Y128.822
G1 F1500 X98.675 Y138.839 E56.58137
G0 F7500 X99.241 Y138.839
G1 F1500 X88.659 Y128.257 E57.32799
G0 F7500 X88.659 Y127.691
G1 F1500 X99.806 Y138.839 E58.11451
G0 F7500 X100.372 Y138.839
G1 F1500 X88.659 Y127.125 E58.94096
G0 F7500 X88.659 Y126.56
G1 F1500 X100.938 Y138.839 E59.80731
G0 F7500 X101.503 Y138.839
G1 F1500 X88.659 Y125.994 E60.71356
G0 F7500 X88.659 Y125.428
G1 F1500 X102.069 Y138.839 E61.65974
G0 F7500 X102.635 Y138.839
G1 F1500 X88.659 Y124.863 E62.64582
G0 F7500 X88.659 Y124.297
G1 F1500 X103.2 Y138.839 E63.6718
G0 F7500 X103.766 Y138.839
G1 F1500 X88.659 Y123.731 E64.73772
G0 F7500 X88.659 Y123.165
G1 F1500 X104.332 Y138.839 E65.84357
G0 F7500 X104.897 Y138.839
G1 F1500 X88.659 Y122.6 E66.98928
G0 F7500 X88.659 Y122.034
G1 F1500 X105.463 Y138.839 E68.17493
G0 F7500 X106.029 Y138.839
G1 F1500 X88.659 Y121.468 E69.40051
G0 F7500 X88.659 Y120.903
G1 F1500 X106.594 Y138.839 E70.66596
G0 F7500 X107.16 Y138.839
G1 F1500 X88.659 Y120.337 E71.97134
G0 F7500 X88.659 Y119.771
G1 F1500 X107.726 Y138.839 E73.31666
G0 F7500 X108.291 Y138.839
G1 F1500 X88.659 Y119.206 E74.70183
G0 F7500 X88.659 Y118.64
G1 F1500 X108.857 Y138.839 E76.12695
G0 F7500 X109.423 Y138.839
G1 F1500 X88.659 Y118.074 E77.592
G0 F7500 X88.659 Y117.509
G1 F1500 X109.989 Y138.839 E79.09694
G0 F7500 X110.554 Y138.839
G1 F1500 X88.659 Y116.943 E80.64179
G0 F7500 X88.659 Y116.377
G1 F1500 X111.12 Y138.839 E82.22657
G0 F7500 X111.686 Y138.839
G1 F1500 X88.659 Y115.812 E83.85125
G0 F7500 X88.659 Y115.246
G1 F1500 X112.251 Y138.839 E85.51583
G0 F7500 X112.817 Y138.839
G1 F1500 X88.659 Y114.68 E87.22034
G0 F7500 X88.659 Y114.115
G1 F1500 X113.383 Y138.839 E88.96475
G0 F7500 X113.948 Y138.839
G1 F1500 X88.659 Y113.549 E90.74906
G0 F7500 X88.659 Y112.983
G1 F1500 X114.514 Y138.839 E92.57331
G0 F7500 X115.08 Y138.839
G1 F1500 X88.659 Y112.417 E94.43749
G0 F7500 X88.659 Y111.852
G1 F1500 X115.645 Y138.839 E96.34153
G0 F7500 X116.211 Y138.839
G1 F1500 X88.659 Y111.286 E98.28551
G0 F7500 X88.659 Y110.72
G1 F1500 X116.777 Y138.839 E100.26942
G0 F7500 X117.342 Y138.839
G1 F1500 X88.659 Y110.155 E102.29319
G0 F7500 X88.659 Y109.589
G1 F1500 X117.908 Y138.839 E104.3569
G0 F7500 X118.474 Y138.839
G1 F1500 X88.659 Y109.023 E106.46055
G0 F7500 X88.659 Y108.458
G1 F1500 X119.04 Y138.839 E108.60409
G0 F7500 X119.605 Y138.839
G1 F1500 X88.659 Y107.892 E110.78754
G0 F7500 X88.659 Y107.326
G1 F1500 X120.171 Y138.839 E113.01091
G0 F7500 X120.737 Y138.839
G1 F1500 X88.659 Y106.761 E115.27419
G0 F7500 X88.659 Y106.195
G1 F1500 X121.302 Y138.839 E117.57736
G0 F7500 X121.868 Y138.839
G1 F1500 X88.659 Y105.629 E119.92047
G0 F7500 X88.659 Y105.064
G1 F1500 X122.434 Y138.839 E122.30348
G0 F7500 X122.999 Y138.839
G1 F1500 X88.659 Y104.498 E124.72639
G0 F7500 X88.659 Y103.932
G1 F1500 X123.565 Y138.839 E127.18923
G0 F7500 X124.131 Y138.839
G1 F1500 X88.659 Y103.366 E129.69201
G0 F7500 X88.659 Y102.801
G1 F1500 X124.696 Y138.839 E132.23465
G0 F7500 X125.262 Y138.839
G1 F1500 X88.659 Y102.235 E134.81722
G0 F7500 X88.659 Y101.669
G1 F1500 X125.828 Y138.839 E137.43973
G0 F7500 X126.393 Y138.839
G1 F1500 X88.659 Y101.104 E140.10211
G0 F7500 X88.659 Y100.538
G1 F1500 X126.959 Y138.839 E142.80441
G0 F7500 X127.271 Y138.585
G1 F1500 X88.659 Y99.972 E145.52873
G0 F7500 X88.659 Y99.407
G1 F1500 X127.554 Y138.302 E148.27299
G0 F7500 X127.837 Y138.019
G1 F1500 X88.659 Y98.841 E151.0372
G0 F7500 X88.659 Y98.275
G1 F1500 X128.119 Y137.736 E153.82136
G0 F7500 X128.402 Y137.453
G1 F1500 X88.659 Y97.71 E156.62544
G0 F7500 X88.659 Y97.144
G1 F1500 X128.685 Y137.17 E159.44949
G0 F7500 X128.968 Y136.888
G1 F1500 X88.659 Y96.578 E162.29354
G0 F7500 X88.659 Y96.013
G1 F1500 X129.251 Y136.605 E165.15753
G0 F7500 X129.534 Y136.322
G1 F1500 X88.659 Y95.447 E168.04148
G0 F7500 X88.659 Y94.881
G1 F1500 X129.817 Y136.039 E170.9454
G0 F7500 X130.099 Y135.756
G1 F1500 X88.659 Y94.316 E173.86921
G0 F7500 X88.659 Y93.75
G1 F1500 X130.382 Y135.473 E176.813
G0 F7500 X130.665 Y135.191
G1 F1500 X88.659 Y93.184 E179.77678
G0 F7500 X88.659 Y92.618
G1 F1500 X130.948 Y134.908 E182.76054
G0 F7500 X131.231 Y134.625
G1 F1500 X88.659 Y92.053 E185.76422
G0 F7500 X88.659 Y91.487
G1 F1500 X131.34 Y134.168 E188.7756
G0 F7500 X131.34 Y133.602
G1 F1500 X88.659 Y90.921 E191.78697
G0 F7500 X88.659 Y90.356
G1 F1500 X131.34 Y133.037 E194.79835
G0 F7500 X131.34 Y132.471
G1 F1500 X88.659 Y89.79 E197.80972
G0 F7500 X88.659 Y89.224
G1 F1500 X131.34 Y131.905 E200.8211
G0 F7500 X131.34 Y131.34
G1 F1500 X88.659 Y88.659 E203.83247
G0 F7500 X88.659 Y88.093
G1 F1500 X131.34 Y130.774 E206.84385
G0 F7500 X131.34 Y130.208
G1 F1500 X88.659 Y87.527 E209.85522
G0 F7500 X88.659 Y86.962
G1 F1500 X131.34 Y129.643 E212.8666
G0 F7500 X131.34 Y129.077
G1 F1500 X88.659 Y86.396 E215.87797
G0 F7500 X88.659 Y85.83
G1 F1500 X131.34 Y128.511 E218.88935
G0 F7500 X131.34 Y127.946
G1 F1500 X88.768 Y85.373 E221.89307
G0 F7500 X89.05 Y85.091
G1 F1500 X131.34 Y127.38 E224.87682
G0 F7500 X131.34 Y126.814
G1 F1500 X89.333 Y84.808 E227.8406
G0 F7500 X89.616 Y84.525
G1 F1500 X131.34 Y126.248 E230.78442
G0 F7500 X131.34 Y125.683
G1 F1500 X89.899 Y84.242 E233.70831
G0 F7500 X90.182 Y83.959
G1 F1500 X131.34 Y125.117 E236.61223
G0 F7500 X131.34 Y124.551
G1 F1500 X90.465 Y83.676 E239.49618
G0 F7500 X90.747 Y83.394
G1 F1500 X131.34 Y123.986 E242.3602
G0 F7500 X131.34 Y123.42
G1 F1500 X91.03 Y83.111 E245.20425
G0 F7500 X91.313 Y82.828
G1 F1500 X131.34 Y122.854 E248.02834
G0 F7500 X131.34 Y122.289
G1 F1500 X91.596 Y82.545 E250.83249
G0 F7500 X91.879 Y82.262
G1 F1500 X131.34 Y121.723 E253.61668
G0 F7500 X131.34 Y121.157
G1 F1500 X92.162 Y81.979 E256.3809
G0 F7500 X92.445 Y81.696
G1 F1500 X131.34 Y120.592 E259.12519
G0 F7500 X131.34 Y120.026
G1 F1500 X92.727 Y81.414 E261.84951
G0 F7500 X93.039 Y81.16
G1 F1500 X131.34 Y119.46 E264.55181
G0 F7500 X131.34 Y118.895
G1 F1500 X93.605 Y81.16 E267.21422
G0 F7500 X94.171 Y81.16
G1 F1500 X131.34 Y118.329 E269.8367
G0 F7500 X131.34 Y117.763
G1 F1500 X94.736 Y81.16 E272.41927
G0 F7500 X95.302 Y81.16
G1 F1500 X131.34 Y117.197 E274.96191
G0 F7500 X131.34 Y116.632
G1 F1500 X95.868 Y81.16 E277.46465
G0 F7500 X96.433 Y81.16
G1 F1500 X131.34 Y116.066 E279.92749
G0 F7500 X131.34 Y115.5
G1 F1500 X96.999 Y81.16 E282.3504
G0 F7500 X97.565 Y81.16
G1 F1500 X131.34 Y114.935 E284.73341
G0 F7500 X131.34 Y114.369
G1 F1500 X98.13 Y81.16 E287.07652
G0 F7500 X98.696 Y81.16
G1 F1500 X131.34 Y113.803 E289.3797
G0 F7500 X131.34 Y113.238
G1 F1500 X99.262 Y81.16 E291.64297
G0 F7500 X99.827 Y81.16
G1 F1500 X131.34 Y112.672 E293.86635
G0 F7500 X131.34 Y112.106
G1 F1500 X100.393 Y81.16 E296.04979
G0 F7500 X100.959 Y81.16
G1 F1500 X131.34 Y111.541 E298.19333
G0 F7500 X131.34 Y110.975
G1 F1500 X101.524 Y81.16 E300.29698
G0 F7500 X102.09 Y81.16
G1 F1500 X131.34 Y110.409 E302.36069
G0 F7500 X131.34 Y109.844
G1 F1500 X102.656 Y81.16 E304.3845
G0 F7500 X103.222 Y81.16
G1 F1500 X131.34 Y109.278 E306.36838
G0 F7500 X131.34 Y108.712
G1 F1500 X103.787 Y81.16 E308.31235
G0 F7500 X104.353 Y81.16
G1 F1500 X131.34 Y108.147 E310.21643
G0 F7500 X131.34 Y107.581
G1 F1500 X104.919 Y81.16 E312.08058
G0 F7500 X105.484 Y81.16
G1 F1500 X131.34 Y107.015 E313.90482
G0 F7500 X131.34 Y106.449
G1 F1500 X106.05 Y81.16 E315.68913
G0 F7500 X106.616 Y81.16
G1 F1500 X131.34 Y105.884 E317.43355
G0 F7500 X131.34 Y105.318
G1 F1500 X107.181 Y81.16 E319.13806
G0 F7500 X107.747 Y81.16
G1 F1500 X131.34 Y104.752 E320.80264
G0 F7500 X131.34 Y104.187
G1 F1500 X108.313 Y81.16 E322.42732
G0 F7500 X108.878 Y81.16
G1 F1500 X131.34 Y103.621 E324.0121
G0 F7500 X131.34 Y103.055
G1 F1500 X109.444 Y81.16 E325.55694
G0 F7500 X110.01 Y81.16
G1 F1500 X131.34 Y102.49 E327.06189
G0 F7500 X131.34 Y101.924
G1 F1500 X110.575 Y81.16 E328.52694
G0 F7500 X111.141 Y81.16
G1 F1500 X131.34 Y101.358 E329.95205
G0 F7500 X131.34 Y100.793
G1 F1500 X111.707 Y81.16 E331.33726
G0 F7500 X112.273 Y81.16
G1 F1500 X131.34 Y100.227 E332.68254
G0 F7500 X131.34 Y99.661
G1 F1500 X112.838 Y81.16 E333.98792
G0 F7500 X113.404 Y81.16
G1 F1500 X131.34 Y99.096 E335.25341
G0 F7500 X131.34 Y98.53
G1 F1500 X113.97 Y81.16 E336.47895
G0 F7500 X114.535 Y81.16
G1 F1500 X131.34 Y97.964 E337.6646
G0 F7500 X131.34 Y97.399
G1 F1500 X115.101 Y81.16 E338.81035
G0 F7500 X115.667 Y81.16
G1 F1500 X131.34 Y96.833 E339.91617
G0 F7500 X131.34 Y96.267
G1 F1500 X116.232 Y81.16 E340.98208
G0 F7500 X116.798 Y81.16
G1 F1500 X131.34 Y95.701 E342.00806
G0 F7500 X131.34 Y95.136
G1 F1500 X117.364 Y81.16 E342.99414
G0 F7500 X117.929 Y81.16
G1 F1500 X131.34 Y94.57 E343.94033
G0 F7500 X131.34 Y94.004
G1 F1500 X118.495 Y81.16 E344.84658
G0 F7500 X119.061 Y81.16
G1 F1500 X131.34 Y93.439 E345.71293
G0 F7500 X131.34 Y92.873
G1 F1500 X119.626 Y81.16 E346.53938
G0 F7500 X120.192 Y81.16
G1 F1500 X131.34 Y92.307 E347.32589
G0 F7500 X131.34 Y91.742
G1 F1500 X120.758 Y81.16 E348.07251
G0 F7500 X121.323 Y81.16
G1 F1500 X131.34 Y91.176 E348.77923
G0 F7500 X131.34 Y90.61
G1 F1500 X121.889 Y81.16 E349.44601
G0 F7500 X122.455 Y81.16
G1 F1500 X131.34 Y90.045 E350.0729
G0 F7500 X131.34 Y89.479
G1 F1500 X123.021 Y81.16 E350.65985
G0 F7500 X123.586 Y81.16
G1 F1500 X131.34 Y88.913 E351.2069
G0 F7500 X131.34 Y88.348
G1 F1500 X124.152 Y81.16 E351.71405
G0 F7500 X124.718 Y81.16
G1 F1500 X131.34 Y87.782 E352.18127
G0 F7500 X131.34 Y87.216
G1 F1500 X125.283 Y81.16 E352.60859
G0 F7500 X125.849 Y81.16
G1 F1500 X131.34 Y86.65 E352.99597
G0 F7500 X131.34 Y86.085
G1 F1500 X126.415 Y81.16 E353.34346
G0 F7500 X126.98 Y81.16
G1 F1500 X131.34 Y85.519 E353.65104
G1 F2400 E350.65104
;MESH:NONMESH
G0 F300 X131.34 Y85.519 Z0.45
G0 F7500 X131.683 Y85.176
G0 X131.736 Y134.682
G0 X127.182 Y139.236
G0 X92.735 Y139.242
G1 F2400 E353.65104
G0 F7500 X92.75 Y139.4
;TIME_ELAPSED:303.969676
;LAYER:1
M106 S85
;TYPE:WALL-INNER
;MESH:Left foot.obj
G1 F2760 X127.25 Y139.4 E354.51165
G1 X131.9 Y134.75 E354.67569
G1 X131.9 Y88.537 E355.82848
G1 X131.9 Y85.25 E355.91047
G1 X127.25 Y80.6 E356.07452
G1 X92.75 Y80.6 E356.93512
G1 X88.1 Y85.25 E357.09916
G1 X88.1 Y134.75 E358.33394
G1 X92.75 Y139.4 E358.49799
G0 F8250 X92.584 Y139.8
;TYPE:WALL-OUTER
G1 F1770 X127.416 Y139.8 E359.36687
G1 X132.3 Y134.916 E359.53917
G1 X132.3 Y88.537 E360.6961
G1 X132.3 Y85.084 E360.78223
G1 X127.416 Y80.2 E360.95453
G1 X92.584 Y80.2 E361.82342
