;FLAVOR:Marlin
;TIME:4743
;Filament used: 2.92055m
;Layer height: 0.15
;MINX:79.7
;MINY:72.2
;MINZ:0.3
;MAXX:140.3
;MAXY:147.8
;MAXZ:25.95
;Generated with Cura_SteamEngine 5.2.1
M140 S60
M105
M190 S60
M104 S210
M105
M109 S210
M82 ;absolute extrusion mode
G28 ;Home
G1 Z15.0 F2000 ;Move the platform
G92 E0
G92 E0
G1 F2400 E-3
;LAYER_COUNT:172
;LAYER:0
M107
M204 S1000
G0 F7500 X81.985 Y79.485 Z0.3
;TYPE:SKIRT
G1 F2400 E0
G1 F1500 X86.985 Y74.485 E0.35278
G1 X87.571 Y73.955 E0.3922
G1 X88.207 Y73.488 E0.43156
G1 X88.887 Y73.087 E0.47095
G1 X89.605 Y72.757 E0.51037
G1 X90.352 Y72.502 E0.54975
G1 X91.121 Y72.323 E0.58914
G1 X91.905 Y72.223 E0.62857
G1 X92.5 Y72.2 E0.65828
G1 X127.5 Y72.2 E2.40444
G1 X128.289 Y72.24 E2.44385
G1 X129.069 Y72.359 E2.48321
G1 X129.834 Y72.557 E2.52264
G1 X130.574 Y72.831 E2.56201
G1 X131.283 Y73.179 E2.60141
G1 X131.954 Y73.597 E2.64085
G1 X132.578 Y74.08 E2.68022
G1 X133.015 Y74.485 E2.70994
G1 X138.015 Y79.485 E3.06272
G1 X138.545 Y80.071 E3.10214
G1 X139.012 Y80.707 E3.14151
G1 X139.413 Y81.387 E3.18089
G1 X139.743 Y82.105 E3.22031
G1 X139.998 Y82.852 E3.25969
G1 X140.177 Y83.621 E3.29908
G1 X140.277 Y84.405 E3.33852
G1 X140.3 Y85 E3.36822
G1 X140.3 Y135 E5.86273
G1 X140.26 Y135.789 E5.90215
G1 X140.141 Y136.569 E5.94151
G1 X139.943 Y137.334 E5.98093
G1 X139.669 Y138.074 E6.0203
G1 X139.321 Y138.783 E6.05971
G1 X138.903 Y139.454 E6.09915
G1 X138.42 Y140.078 E6.13851
G1 X138.015 Y140.515 E6.16824
G1 X133.015 Y145.515 E6.52102
G1 X132.429 Y146.045 E6.56044
G1 X131.793 Y146.512 E6.5998
G1 X131.113 Y146.913 E6.63919
G1 X130.395 Y147.243 E6.67861
G1 X129.648 Y147.498 E6.71799
G1 X128.879 Y147.677 E6.75738
G1 X128.095 Y147.777 E6.79681
G1 X127.5 Y147.8 E6.82652
G1 X92.5 Y147.8 E8.57268
G1 X91.711 Y147.76 E8.61209
G1 X90.931 Y147.641 E8.65145
G1 X90.166 Y147.443 E8.69088
G1 X89.426 Y147.169 E8.73025
G1 X88.717 Y146.821 E8.76965
G1 X88.046 Y146.403 E8.80909
G1 X87.422 Y145.92 E8.84846
G1 X86.985 Y145.515 E8.87818
G1 X81.985 Y140.515 E9.23096
G1 X81.455 Y139.929 E9.27038
G1 X80.988 Y139.293 E9.30974
G1 X80.587 Y138.613 E9.34913
G1 X80.257 Y137.895 E9.38855
G1 X80.002 Y137.148 E9.42793
G1 X79.823 Y136.379 E9.46732
G1 X79.723 Y135.595 E9.50675
G1 X79.7 Y135 E9.53646
G1 X79.7 Y85 E12.03097
G1 X79.74 Y84.211 E12.07039
G1 X79.859 Y83.431 E12.10975
G1 X80.057 Y82.666 E12.14917
G1 X80.331 Y81.926 E12.18854
G1 X80.679 Y81.217 E12.22795
G1 X81.097 Y80.546 E12.26739
G1 X81.58 Y79.922 E12.30675
G1 X81.985 Y79.485 E12.33648
G0 F7500 X82.267 Y79.767
G1 F1500 X87.267 Y74.767 E12.68926
G1 X87.839 Y74.253 E12.72762
G1 X88.461 Y73.8 E12.76601
G1 X89.126 Y73.414 E12.80437
G1 X89.828 Y73.099 E12.84276
G1 X90.559 Y72.859 E12.88114
G1 X91.31 Y72.696 E12.91948
G1 X92.075 Y72.612 E12.95788
G1 X92.5 Y72.6 E12.97909
G1 X127.5 Y72.6 E14.72525
G1 X128.268 Y72.64 E14.76362
G1 X129.028 Y72.759 E14.802
G1 X129.771 Y72.957 E14.84036
G1 X130.49 Y73.231 E14.87874
G1 X131.176 Y73.578 E14.9171
G1 X131.823 Y73.994 E14.95547
G1 X132.423 Y74.475 E14.99384
G1 X132.733 Y74.767 E15.01509
G1 X137.733 Y79.767 E15.36786
G1 X138.247 Y80.339 E15.40623
G1 X138.7 Y80.961 E15.44462
G1 X139.086 Y81.626 E15.48298
G1 X139.401 Y82.328 E15.52137
G1 X139.641 Y83.059 E15.55975
G1 X139.804 Y83.81 E15.59809
G1 X139.888 Y84.575 E15.63649
G1 X139.9 Y85 E15.6577
G1 X139.9 Y135 E18.15221
G1 X139.86 Y135.768 E18.19058
G1 X139.741 Y136.528 E18.22896
G1 X139.543 Y137.271 E18.26732
G1 X139.269 Y137.99 E18.30571
G1 X138.922 Y138.676 E18.34406
G1 X138.506 Y139.323 E18.38243
G1 X138.025 Y139.923 E18.4208
G1 X137.733 Y140.233 E18.44205
G1 X132.733 Y145.233 E18.79482
G1 X132.161 Y145.747 E18.83319
G1 X131.539 Y146.2 E18.87158
G1 X130.874 Y146.586 E18.90994
G1 X130.172 Y146.901 E18.94833
G1 X129.441 Y147.141 E18.98671
G1 X128.69 Y147.304 E19.02505
G1 X127.925 Y147.388 E19.06345
G1 X127.5 Y147.4 E19.08466
G1 X92.5 Y147.4 E20.83082
G1 X91.732 Y147.36 E20.86918
G1 X90.972 Y147.241 E20.90756
G1 X90.229 Y147.043 E20.94593
G1 X89.51 Y146.769 E20.98431
G1 X88.824 Y146.422 E21.02267
G1 X88.177 Y146.006 E21.06104
G1 X87.577 Y145.525 E21.09941
G1 X87.267 Y145.233 E21.12065
G1 X82.267 Y140.233 E21.47343
G1 X81.753 Y139.661 E21.5118
G1 X81.3 Y139.039 E21.55019
G1 X80.914 Y138.374 E21.58855
G1 X80.599 Y137.672 E21.62693
G1 X80.359 Y136.941 E21.66532
G1 X80.196 Y136.19 E21.70366
G1 X80.112 Y135.425 E21.74206
G1 X80.1 Y135 E21.76327
G1 X80.1 Y85 E24.25778
G1 X80.14 Y84.232 E24.29614
G1 X80.259 Y83.472 E24.33452
G1 X80.457 Y82.729 E24.37289
G1 X80.731 Y82.01 E24.41127
G1 X81.078 Y81.324 E24.44963
G1 X81.494 Y80.677 E24.488
G1 X81.975 Y80.077 E24.52637
G1 X82.267 Y79.767 E24.54761
G0 F7500 X82.55 Y80.05
G1 F1500 X87.55 Y75.05 E24.90039
G1 X88.107 Y74.55 E24.93773
G1 X88.713 Y74.113 E24.97501
G1 X89.363 Y73.742 E25.01235
G1 X90.049 Y73.443 E25.04968
G1 X90.763 Y73.219 E25.08702
G1 X91.496 Y73.072 E25.12431
G1 X92.5 Y73 E25.17453
G1 X127.5 Y73 E26.92069
G1 X128.247 Y73.04 E26.95801
G1 X128.985 Y73.159 E26.9953
G1 X129.707 Y73.357 E27.03266
G1 X130.403 Y73.63 E27.06995
G1 X131.066 Y73.977 E27.10729
G1 X131.689 Y74.392 E27.14463
G1 X132.45 Y75.05 E27.19483
G1 X137.45 Y80.05 E27.5476
G1 X137.95 Y80.607 E27.58494
G1 X138.387 Y81.213 E27.62222
G1 X138.758 Y81.863 E27.65956
G1 X139.057 Y82.549 E27.69689
G1 X139.281 Y83.263 E27.73423
G1 X139.428 Y83.996 E27.77152
G1 X139.5 Y85 E27.82174
G1 X139.5 Y135 E30.31625
G1 X139.46 Y135.747 E30.35357
G1 X139.341 Y136.485 E30.39087
G1 X139.143 Y137.207 E30.42822
G1 X138.87 Y137.903 E30.46552
G1 X138.523 Y138.566 E30.50285
G1 X138.108 Y139.189 E30.5402
G1 X137.45 Y139.95 E30.59039
G1 X132.45 Y144.95 E30.94317
G1 X131.893 Y145.45 E30.98051
G1 X131.287 Y145.887 E31.01778
G1 X130.637 Y146.258 E31.05512
G1 X129.951 Y146.557 E31.09246
G1 X129.237 Y146.781 E31.12979
G1 X128.504 Y146.928 E31.16709
G1 X127.5 Y147 E31.21731
G1 X92.5 Y147 E32.96346
G1 X91.753 Y146.96 E33.00078
G1 X91.015 Y146.841 E33.03808
G1 X90.293 Y146.643 E33.07543
G1 X89.597 Y146.37 E33.11273
G1 X88.934 Y146.023 E33.15006
G1 X88.311 Y145.608 E33.18741
G1 X87.55 Y144.95 E33.2376
G1 X82.55 Y139.95 E33.59038
G1 X82.05 Y139.393 E33.62772
G1 X81.613 Y138.787 E33.66499
G1 X81.242 Y138.137 E33.70233
G1 X80.943 Y137.451 E33.73967
G1 X80.719 Y136.737 E33.777
G1 X80.572 Y136.004 E33.8143
G1 X80.5 Y135 E33.86452
G1 X80.5 Y85 E36.35903
G1 X80.54 Y84.253 E36.39635
G1 X80.659 Y83.515 E36.43364
G1 X80.857 Y82.793 E36.47099
G1 X81.13 Y82.097 E36.50829
G1 X81.477 Y81.434 E36.54563
G1 X81.892 Y80.811 E36.58297
G1 X82.55 Y80.05 E36.63316
G0 F7500 X82.833 Y80.333
G1 F1500 X87.833 Y75.333 E36.98594
G1 X88.374 Y74.849 E37.02216
G1 X88.965 Y74.426 E37.05842
G1 X89.599 Y74.072 E37.09464
G1 X90.268 Y73.789 E37.13088
G1 X90.964 Y73.581 E37.16712
G1 X91.679 Y73.451 E37.20338
G1 X92.5 Y73.4 E37.24442
G1 X127.5 Y73.4 E38.99058
G1 X128.225 Y73.44 E39.0268
G1 X128.942 Y73.559 E39.06306
G1 X129.641 Y73.757 E39.09931
G1 X130.314 Y74.03 E39.13554
G1 X130.953 Y74.375 E39.17177
G1 X131.55 Y74.789 E39.20802
G1 X132.167 Y75.333 E39.24905
G1 X137.167 Y80.333 E39.60183
G1 X137.651 Y80.874 E39.63805
G1 X138.074 Y81.465 E39.67431
G1 X138.428 Y82.099 E39.71053
G1 X138.711 Y82.768 E39.74677
G1 X138.919 Y83.464 E39.78301
G1 X139.049 Y84.179 E39.81927
G1 X139.1 Y85 E39.86031
G1 X139.1 Y135 E42.35482
G1 X139.06 Y135.725 E42.39104
G1 X138.941 Y136.442 E42.4273
G1 X138.743 Y137.141 E42.46355
G1 X138.47 Y137.814 E42.49978
G1 X138.125 Y138.453 E42.53601
G1 X137.711 Y139.05 E42.57226
G1 X137.167 Y139.667 E42.6133
G1 X132.167 Y144.667 E42.96607
G1 X131.626 Y145.151 E43.00229
G1 X131.035 Y145.574 E43.03855
G1 X130.401 Y145.928 E43.07478
G1 X129.732 Y146.211 E43.11102
G1 X129.036 Y146.419 E43.14726
G1 X128.321 Y146.549 E43.18351
G1 X127.5 Y146.6 E43.22455
G1 X92.5 Y146.6 E44.97071
G1 X91.775 Y146.56 E45.00693
G1 X91.058 Y146.441 E45.04319
G1 X90.359 Y146.243 E45.07944
G1 X89.686 Y145.97 E45.11567
G1 X89.047 Y145.625 E45.1519
G1 X88.45 Y145.211 E45.18815
G1 X87.833 Y144.667 E45.22919
G1 X82.833 Y139.667 E45.58196
G1 X82.349 Y139.126 E45.61818
G1 X81.926 Y138.535 E45.65444
G1 X81.572 Y137.901 E45.69067
G1 X81.289 Y137.232 E45.72691
G1 X81.081 Y136.536 E45.76315
G1 X80.951 Y135.821 E45.7994
G1 X80.9 Y135 E45.84044
G1 X80.9 Y85 E48.33495
G1 X80.94 Y84.275 E48.37118
G1 X81.059 Y83.558 E48.40744
G1 X81.257 Y82.859 E48.44368
G1 X81.53 Y82.186 E48.47992
G1 X81.875 Y81.547 E48.51615
G1 X82.289 Y80.95 E48.55239
G1 X82.833 Y80.333 E48.59343
G0 F7500 X83.116 Y80.616
G1 F1500 X88.116 Y75.616 E48.94621
G1 X88.641 Y75.147 E48.98133
G1 X89.216 Y74.741 E49.01645
G1 X89.834 Y74.403 E49.05159
G1 X90.485 Y74.136 E49.08669
G1 X91.163 Y73.946 E49.12182
G1 X91.858 Y73.833 E49.15695
G1 X92.5 Y73.8 E49.18902
G1 X127.5 Y73.8 E50.93518
G1 X128.203 Y73.84 E50.97031
G1 X128.897 Y73.959 E51.00544
G1 X129.572 Y74.157 E51.04053
G1 X130.221 Y74.429 E51.07564
G1 X130.835 Y74.774 E51.11078
G1 X131.406 Y75.185 E51.14588
G1 X131.884 Y75.616 E51.17799
G1 X136.884 Y80.616 E51.53076
G1 X137.353 Y81.141 E51.56588
G1 X137.759 Y81.716 E51.601
G1 X138.097 Y82.334 E51.63614
G1 X138.364 Y82.985 E51.67125
G1 X138.554 Y83.663 E51.70638
G1 X138.667 Y84.358 E51.74151
G1 X138.7 Y85 E51.77358
G1 X138.7 Y135 E54.26809
G1 X138.66 Y135.703 E54.30322
G1 X138.541 Y136.397 E54.33835
G1 X138.343 Y137.072 E54.37344
G1 X138.071 Y137.721 E54.40855
G1 X137.726 Y138.335 E54.44369
G1 X137.315 Y138.906 E54.47879
G1 X136.884 Y139.384 E54.5109
G1 X131.884 Y144.384 E54.86367
G1 X131.359 Y144.853 E54.89879
G1 X130.784 Y145.259 E54.93391
G1 X130.166 Y145.597 E54.96905
G1 X129.515 Y145.864 E55.00416
G1 X128.837 Y146.054 E55.03929
G1 X128.142 Y146.167 E55.07442
G1 X127.5 Y146.2 E55.10649
G1 X92.5 Y146.2 E56.85264
G1 X91.797 Y146.16 E56.88777
G1 X91.103 Y146.041 E56.9229
G1 X90.428 Y145.843 E56.958
G1 X89.779 Y145.571 E56.9931
G1 X89.165 Y145.226 E57.02824
G1 X88.594 Y144.815 E57.06334
G1 X88.116 Y144.384 E57.09545
G1 X83.116 Y139.384 E57.44823
G1 X82.647 Y138.859 E57.48335
G1 X82.241 Y138.284 E57.51847
G1 X81.903 Y137.666 E57.55361
G1 X81.636 Y137.015 E57.58871
G1 X81.446 Y136.337 E57.62384
G1 X81.333 Y135.642 E57.65897
G1 X81.3 Y135 E57.69104
G1 X81.3 Y85 E60.18555
G1 X81.34 Y84.297 E60.22068
G1 X81.459 Y83.603 E60.25581
G1 X81.657 Y82.928 E60.29091
G1 X81.929 Y82.279 E60.32601
G1 X82.274 Y81.665 E60.36115
G1 X82.685 Y81.094 E60.39625
G1 X83.116 Y80.616 E60.42836
G0 F7500 X83.399 Y80.899
G1 F1500 X88.399 Y75.899 E60.78114
G1 X88.908 Y75.446 E60.81513
G1 X89.466 Y75.057 E60.84907
G1 X90.066 Y74.735 E60.88304
G1 X90.7 Y74.486 E60.91702
G1 X91.359 Y74.313 E60.95102
G1 X92.033 Y74.219 E60.98497
G1 X92.5 Y74.2 E61.00828
G1 X127.5 Y74.2 E62.75444
G1 X128.18 Y74.24 E62.78843
G1 X128.85 Y74.359 E62.82238
G1 X129.502 Y74.556 E62.85636
G1 X130.126 Y74.828 E62.89032
G1 X130.714 Y75.172 E62.9243
G1 X131.258 Y75.582 E62.95829
G1 X131.601 Y75.899 E62.98159
G1 X136.601 Y80.899 E63.33437
G1 X137.054 Y81.408 E63.36836
G1 X137.443 Y81.966 E63.4023
G1 X137.765 Y82.566 E63.43627
G1 X138.014 Y83.2 E63.47025
G1 X138.187 Y83.859 E63.50424
G1 X138.281 Y84.533 E63.5382
G1 X138.3 Y85 E63.56151
G1 X138.3 Y135 E66.05602
G1 X138.26 Y135.68 E66.09001
G1 X138.141 Y136.35 E66.12396
G1 X137.944 Y137.002 E66.15794
G1 X137.672 Y137.626 E66.1919
G1 X137.328 Y138.214 E66.22589
G1 X136.918 Y138.758 E66.25987
G1 X136.601 Y139.101 E66.28317
G1 X131.601 Y144.101 E66.63595
G1 X131.092 Y144.554 E66.66994
G1 X130.534 Y144.943 E66.70388
G1 X129.934 Y145.265 E66.73785
G1 X129.3 Y145.514 E66.77183
G1 X128.641 Y145.687 E66.80583
G1 X127.967 Y145.781 E66.83978
G1 X127.5 Y145.8 E66.8631
G1 X92.5 Y145.8 E68.60925
G1 X91.82 Y145.76 E68.64324
G1 X91.15 Y145.641 E68.67719
G1 X90.498 Y145.444 E68.71117
G1 X89.874 Y145.172 E68.74513
G1 X89.286 Y144.828 E68.77911
G1 X88.742 Y144.418 E68.8131
G1 X88.399 Y144.101 E68.8364
G1 X83.399 Y139.101 E69.18918
G1 X82.946 Y138.592 E69.22317
G1 X82.557 Y138.034 E69.25711
G1 X82.235 Y137.434 E69.29108
G1 X81.986 Y136.8 E69.32506
G1 X81.813 Y136.141 E69.35905
G1 X81.719 Y135.467 E69.39301
G1 X81.7 Y135 E69.41632
G1 X81.7 Y85 E71.91083
G1 X81.74 Y84.32 E71.94482
G1 X81.859 Y83.65 E71.97877
G1 X82.056 Y82.998 E72.01275
G1 X82.328 Y82.374 E72.04671
G1 X82.672 Y81.786 E72.0807
G1 X83.082 Y81.242 E72.11468
G1 X83.399 Y80.899 E72.13798
G0 F7500 X83.682 Y81.182
G1 F1500 X88.682 Y76.182 E72.49076
G1 X89.174 Y75.746 E72.52356
G1 X89.715 Y75.374 E72.55631
G1 X90.297 Y75.07 E72.58907
G1 X90.912 Y74.839 E72.62185
G1 X91.551 Y74.684 E72.65465
G1 X92.5 Y74.6 E72.70218
G1 X127.5 Y74.6 E74.44834
G1 X128.156 Y74.64 E74.48113
G1 X128.802 Y74.759 E74.5139
G1 X129.429 Y74.956 E74.54669
G1 X130.027 Y75.228 E74.57946
G1 X130.588 Y75.57 E74.61224
G1 X131.318 Y76.182 E74.65977
G1 X136.318 Y81.182 E75.01255
G1 X136.754 Y81.674 E75.04534
G1 X137.126 Y82.215 E75.0781
G1 X137.43 Y82.797 E75.11086
G1 X137.661 Y83.412 E75.14363
G1 X137.816 Y84.051 E75.17644
G1 X137.9 Y85 E75.22397
G1 X137.9 Y135 E77.71848
G1 X137.86 Y135.656 E77.75127
G1 X137.741 Y136.302 E77.78404
G1 X137.544 Y136.929 E77.81683
G1 X137.272 Y137.527 E77.8496
G1 X136.93 Y138.088 E77.88238
G1 X136.318 Y138.818 E77.92991
G1 X131.318 Y143.818 E78.28268
G1 X130.826 Y144.254 E78.31548
G1 X130.285 Y144.626 E78.34824
G1 X129.703 Y144.93 E78.38099
G1 X129.088 Y145.161 E78.41377
G1 X128.449 Y145.316 E78.44657
G1 X127.5 Y145.4 E78.49411
G1 X92.5 Y145.4 E80.24026
G1 X91.844 Y145.36 E80.27305
G1 X91.198 Y145.241 E80.30582
G1 X90.571 Y145.044 E80.33861
G1 X89.973 Y144.772 E80.37139
G1 X89.412 Y144.43 E80.40417
G1 X88.682 Y143.818 E80.45169
G1 X83.682 Y138.818 E80.80447
G1 X83.246 Y138.326 E80.83727
G1 X82.874 Y137.785 E80.87002
G1 X82.57 Y137.203 E80.90278
G1 X82.339 Y136.588 E80.93556
G1 X82.184 Y135.949 E80.96836
G1 X82.1 Y135 E81.01589
G1 X82.1 Y85 E83.5104
G1 X82.14 Y84.344 E83.54319
G1 X82.259 Y83.698 E83.57596
G1 X82.456 Y83.071 E83.60875
G1 X82.728 Y82.473 E83.64153
G1 X83.07 Y81.912 E83.6743
G1 X83.682 Y81.182 E83.72183
G0 F7500 X83.964 Y81.464
G1 F1500 X88.964 Y76.464 E84.07461
G1 X89.439 Y76.047 E84.10614
G1 X89.962 Y75.692 E84.13768
G1 X90.526 Y75.406 E84.16923
G1 X91.121 Y75.194 E84.20074
G1 X91.739 Y75.058 E84.23231
G1 X92.5 Y75 E84.27039
G1 X127.5 Y75 E86.01654
G1 X128.131 Y75.04 E86.04809
G1 X128.752 Y75.159 E86.07963
G1 X129.352 Y75.356 E86.11114
G1 X129.924 Y75.627 E86.14272
G1 X130.456 Y75.967 E86.17422
G1 X131.036 Y76.464 E86.21232
G1 X136.036 Y81.464 E86.5651
G1 X136.453 Y81.939 E86.59663
G1 X136.808 Y82.462 E86.62817
G1 X137.094 Y83.026 E86.65972
G1 X137.306 Y83.621 E86.69123
G1 X137.442 Y84.239 E86.7228
G1 X137.5 Y85 E86.76088
G1 X137.5 Y135 E89.25539
G1 X137.46 Y135.631 E89.28693
G1 X137.341 Y136.252 E89.31848
G1 X137.144 Y136.852 E89.34998
G1 X136.873 Y137.424 E89.38156
G1 X136.533 Y137.956 E89.41306
G1 X136.036 Y138.536 E89.45117
G1 X131.036 Y143.536 E89.80394
G1 X130.561 Y143.953 E89.83548
G1 X130.038 Y144.308 E89.86701
G1 X129.474 Y144.594 E89.89856
G1 X128.879 Y144.806 E89.93008
G1 X128.261 Y144.942 E89.96164
G1 X127.5 Y145 E89.99972
G1 X92.5 Y145 E91.74588
G1 X91.869 Y144.96 E91.77742
G1 X91.248 Y144.841 E91.80897
G1 X90.648 Y144.644 E91.84047
G1 X90.076 Y144.373 E91.87205
G1 X89.544 Y144.033 E91.90355
G1 X88.964 Y143.536 E91.94166
G1 X83.964 Y138.536 E92.29444
G1 X83.547 Y138.061 E92.32597
G1 X83.192 Y137.538 E92.35751
G1 X82.906 Y136.974 E92.38905
G1 X82.694 Y136.379 E92.42057
G1 X82.558 Y135.761 E92.45214
G1 X82.5 Y135 E92.49021
G1 X82.5 Y85 E94.98472
G1 X82.54 Y84.369 E95.01627
G1 X82.659 Y83.748 E95.04781
G1 X82.856 Y83.148 E95.07932
G1 X83.127 Y82.576 E95.1109
G1 X83.467 Y82.044 E95.1424
G1 X83.964 Y81.464 E95.1805
G0 F7500 X84.247 Y81.747
G1 F1500 X89.247 Y76.747 E95.53328
G1 X89.703 Y76.348 E95.56351
G1 X90.208 Y76.012 E95.59377
G1 X90.752 Y75.745 E95.624
G1 X91.327 Y75.552 E95.65426
G1 X91.922 Y75.436 E95.68451
G1 X92.5 Y75.4 E95.7134
G1 X127.5 Y75.4 E97.45956
G1 X128.105 Y75.44 E97.48981
G1 X128.699 Y75.559 E97.52003
G1 X129.273 Y75.755 E97.55029
G1 X129.816 Y76.026 E97.58057
G1 X130.319 Y76.365 E97.61083
G1 X130.753 Y76.747 E97.63967
G1 X135.753 Y81.747 E97.99245
G1 X136.152 Y82.203 E98.02268
G1 X136.488 Y82.708 E98.05294
G1 X136.755 Y83.252 E98.08318
