;FLAVOR:Marlin
;TIME:4536
;Filament used: 2.48112m
;Layer height: 0.15
;MINX:93.7
;MINY:85.95
;MINZ:0.3
;MAXX:126.3
;MAXY:136.55
;MAXZ:42
;Generated with Cura_SteamEngine 5.2.1
M140 S60
M105
M190 S60
M104 S210
M105
M109 S210
M82 ;absolute extrusion mode
G28 ;Home
G1 Z15.0 F2000 ;Move the platform
G92 E0
G92 E0
G1 F2400 E-3
;LAYER_COUNT:279
;LAYER:0
M107
M204 S1000
G0 F7500 X95.985 Y90.235 Z0.3
;TYPE:SKIRT
G1 F2400 E0
G1 F1500 X97.985 Y88.235 E0.14111
G1 X98.571 Y87.705 E0.18053
G1 X99.207 Y87.238 E0.2199
G1 X99.887 Y86.837 E0.25928
G1 X100.605 Y86.507 E0.2987
G1 X101.352 Y86.252 E0.33808
G1 X102.121 Y86.073 E0.37747
G1 X102.905 Y85.973 E0.41691
G1 X103.5 Y85.95 E0.44661
G1 X116.5 Y85.95 E1.09519
G1 X117.289 Y85.99 E1.1346
G1 X118.069 Y86.109 E1.17396
G1 X118.834 Y86.307 E1.21339
G1 X119.574 Y86.581 E1.25276
G1 X120.283 Y86.929 E1.29216
G1 X120.954 Y87.347 E1.3316
G1 X121.578 Y87.83 E1.37097
G1 X122.015 Y88.235 E1.40069
G1 X124.015 Y90.235 E1.5418
G1 X124.545 Y90.821 E1.58122
G1 X125.012 Y91.457 E1.62059
G1 X125.413 Y92.137 E1.65997
G1 X125.743 Y92.855 E1.6994
G1 X125.998 Y93.602 E1.73878
G1 X126.177 Y94.371 E1.77817
G1 X126.277 Y95.155 E1.8176
G1 X126.3 Y95.75 E1.84731
G1 X126.3 Y126.75 E3.3939
G1 X126.26 Y127.539 E3.43332
G1 X126.141 Y128.319 E3.47268
G1 X125.943 Y129.084 E3.5121
G1 X125.669 Y129.824 E3.55147
G1 X125.321 Y130.533 E3.59088
G1 X124.903 Y131.204 E3.63032
G1 X124.42 Y131.828 E3.66968
G1 X124.015 Y132.265 E3.69941
G1 X122.015 Y134.265 E3.84052
G1 X121.429 Y134.795 E3.87994
G1 X120.793 Y135.262 E3.9193
G1 X120.113 Y135.663 E3.95869
G1 X119.395 Y135.993 E3.99811
G1 X118.648 Y136.248 E4.03749
G1 X117.879 Y136.427 E4.07688
G1 X117.095 Y136.527 E4.11631
G1 X116.5 Y136.55 E4.14602
G1 X116.125 Y136.55 E4.16473
G1 X115.336 Y136.51 E4.20414
G1 X114.556 Y136.391 E4.24351
G1 X113.791 Y136.193 E4.28293
G1 X113.051 Y135.919 E4.3223
G1 X112.342 Y135.571 E4.3617
G1 X111.671 Y135.153 E4.40114
G1 X111.047 Y134.67 E4.44051
G1 X110.474 Y134.127 E4.4799
G1 X109.995 Y133.57 E4.51655
G1 X109.795 Y133.828 E4.53283
G1 X109.252 Y134.401 E4.57222
G1 X108.653 Y134.916 E4.61163
G1 X108.005 Y135.367 E4.65102
G1 X107.314 Y135.751 E4.69046
G1 X106.589 Y136.063 E4.72983
G1 X105.836 Y136.3 E4.76922
G1 X105.062 Y136.459 E4.80864
G1 X104.277 Y136.54 E4.84801
G1 X103.5 Y136.55 E4.88678
G1 X102.711 Y136.51 E4.92619
G1 X101.931 Y136.391 E4.96556
G1 X101.166 Y136.193 E5.00498
G1 X100.426 Y135.919 E5.04435
G1 X99.717 Y135.571 E5.08375
G1 X99.046 Y135.153 E5.12319
G1 X98.422 Y134.67 E5.16256
G1 X97.985 Y134.265 E5.19229
G1 X95.985 Y132.265 E5.3334
G1 X95.455 Y131.679 E5.37282
G1 X94.988 Y131.043 E5.41218
G1 X94.587 Y130.363 E5.45157
G1 X94.257 Y129.645 E5.49099
G1 X94.002 Y128.898 E5.53037
G1 X93.823 Y128.129 E5.56976
G1 X93.723 Y127.345 E5.60919
G1 X93.7 Y126.75 E5.6389
G1 X93.7 Y95.75 E7.1855
G1 X93.74 Y94.961 E7.22491
G1 X93.859 Y94.181 E7.26427
G1 X94.057 Y93.416 E7.3037
G1 X94.331 Y92.676 E7.34307
G1 X94.679 Y91.967 E7.38247
G1 X95.097 Y91.296 E7.42191
G1 X95.58 Y90.672 E7.46128
G1 X95.985 Y90.235 E7.491
G0 F7500 X96.267 Y90.517
G1 F1500 X98.267 Y88.517 E7.63211
G1 X98.839 Y88.003 E7.67048
G1 X99.461 Y87.55 E7.70887
G1 X100.126 Y87.164 E7.74723
G1 X100.828 Y86.849 E7.78562
G1 X101.559 Y86.609 E7.824
G1 X102.31 Y86.446 E7.86234
G1 X103.075 Y86.362 E7.90074
G1 X103.5 Y86.35 E7.92195
G1 X116.5 Y86.35 E8.57052
G1 X117.268 Y86.39 E8.60889
G1 X118.028 Y86.509 E8.64727
G1 X118.771 Y86.707 E8.68563
G1 X119.49 Y86.981 E8.72402
G1 X120.176 Y87.328 E8.76237
G1 X120.823 Y87.744 E8.80075
G1 X121.423 Y88.225 E8.83911
G1 X121.733 Y88.517 E8.86036
G1 X123.733 Y90.517 E9.00147
G1 X124.247 Y91.089 E9.03984
G1 X124.7 Y91.711 E9.07823
G1 X125.086 Y92.376 E9.11659
G1 X125.401 Y93.078 E9.15497
G1 X125.641 Y93.809 E9.19336
G1 X125.804 Y94.56 E9.2317
G1 X125.888 Y95.325 E9.27009
G1 X125.9 Y95.75 E9.29131
G1 X125.9 Y126.75 E10.8379
G1 X125.86 Y127.518 E10.87627
G1 X125.741 Y128.278 E10.91465
G1 X125.543 Y129.021 E10.95301
G1 X125.269 Y129.74 E10.9914
G1 X124.922 Y130.426 E11.02975
G1 X124.506 Y131.073 E11.06813
G1 X124.025 Y131.673 E11.10649
G1 X123.733 Y131.983 E11.12774
G1 X121.733 Y133.983 E11.26885
G1 X121.161 Y134.497 E11.30722
G1 X120.539 Y134.95 E11.34561
G1 X119.874 Y135.336 E11.38397
G1 X119.172 Y135.651 E11.42235
G1 X118.441 Y135.891 E11.46074
G1 X117.69 Y136.054 E11.49908
G1 X116.925 Y136.138 E11.53748
G1 X116.5 Y136.15 E11.55869
G1 X116.125 Y136.15 E11.5774
G1 X115.357 Y136.11 E11.61576
G1 X114.597 Y135.991 E11.65414
G1 X113.854 Y135.793 E11.6925
G1 X113.135 Y135.519 E11.73089
G1 X112.449 Y135.172 E11.76925
G1 X111.802 Y134.756 E11.80762
G1 X111.202 Y134.275 E11.84599
G1 X110.655 Y133.734 E11.88437
G1 X110.167 Y133.139 E11.92276
G1 X110.014 Y132.907 E11.93663
G1 X109.4 Y133.673 E11.9856
G1 X108.859 Y134.22 E12.02399
G1 X108.264 Y134.708 E12.06238
G1 X107.622 Y135.131 E12.10073
G1 X106.939 Y135.486 E12.13914
G1 X106.224 Y135.767 E12.17747
G1 X105.482 Y135.973 E12.21588
G1 X104.724 Y136.101 E12.25424
G1 X103.875 Y136.15 E12.29666
G1 X103.5 Y136.15 E12.31537
G1 X102.732 Y136.11 E12.35374
G1 X101.972 Y135.991 E12.39212
G1 X101.229 Y135.793 E12.43048
G1 X100.51 Y135.519 E12.46887
G1 X99.824 Y135.172 E12.50722
G1 X99.177 Y134.756 E12.5456
G1 X98.577 Y134.275 E12.58396
G1 X98.267 Y133.983 E12.60521
G1 X96.267 Y131.983 E12.74632
G1 X95.753 Y131.411 E12.78469
G1 X95.3 Y130.789 E12.82308
G1 X94.914 Y130.124 E12.86144
G1 X94.599 Y129.422 E12.89982
G1 X94.359 Y128.691 E12.93821
G1 X94.196 Y127.94 E12.97655
G1 X94.112 Y127.175 E13.01494
G1 X94.1 Y126.75 E13.03616
G1 X94.1 Y95.75 E14.58275
G1 X94.14 Y94.982 E14.62112
G1 X94.259 Y94.222 E14.6595
G1 X94.457 Y93.479 E14.69786
G1 X94.731 Y92.76 E14.73625
G1 X95.078 Y92.074 E14.7746
G1 X95.494 Y91.427 E14.81298
G1 X95.975 Y90.827 E14.85134
G1 X96.267 Y90.517 E14.87259
G0 F7500 X96.55 Y90.8
G1 F1500 X98.55 Y88.8 E15.0137
G1 X99.107 Y88.3 E15.05104
G1 X99.713 Y87.863 E15.08832
G1 X100.363 Y87.492 E15.12566
G1 X101.049 Y87.193 E15.16299
G1 X101.763 Y86.969 E15.20032
G1 X102.496 Y86.822 E15.23762
G1 X103.5 Y86.75 E15.28784
G1 X116.5 Y86.75 E15.93641
G1 X117.247 Y86.79 E15.97373
G1 X117.985 Y86.909 E16.01103
G1 X118.707 Y87.107 E16.04838
G1 X119.403 Y87.38 E16.08568
G1 X120.066 Y87.727 E16.12301
G1 X120.689 Y88.142 E16.16036
G1 X121.45 Y88.8 E16.21055
G1 X123.45 Y90.8 E16.35166
G1 X123.95 Y91.357 E16.389
G1 X124.387 Y91.963 E16.42628
G1 X124.758 Y92.613 E16.46362
G1 X125.057 Y93.299 E16.50095
G1 X125.281 Y94.013 E16.53828
G1 X125.428 Y94.746 E16.57558
G1 X125.5 Y95.75 E16.6258
G1 X125.5 Y126.75 E18.1724
G1 X125.46 Y127.497 E18.20972
G1 X125.341 Y128.235 E18.24701
G1 X125.143 Y128.957 E18.28436
G1 X124.87 Y129.653 E18.32166
G1 X124.523 Y130.316 E18.359
G1 X124.108 Y130.939 E18.39634
G1 X123.45 Y131.7 E18.44653
G1 X121.45 Y133.7 E18.58764
G1 X120.893 Y134.2 E18.62499
G1 X120.287 Y134.637 E18.66226
G1 X119.637 Y135.008 E18.6996
G1 X118.951 Y135.307 E18.73694
G1 X118.237 Y135.531 E18.77427
G1 X117.504 Y135.678 E18.81157
G1 X116.5 Y135.75 E18.86178
G1 X116.125 Y135.75 E18.88049
G1 X115.378 Y135.71 E18.91781
G1 X114.64 Y135.591 E18.95511
G1 X113.918 Y135.393 E18.99246
G1 X113.222 Y135.12 E19.02976
G1 X112.559 Y134.773 E19.06709
G1 X111.936 Y134.358 E19.10444
G1 X111.362 Y133.879 E19.14174
G1 X110.841 Y133.342 E19.17907
G1 X110.382 Y132.752 E19.21636
G1 X110.008 Y132.15 E19.25172
G1 X109.483 Y132.939 E19.299
G1 X109.004 Y133.513 E19.3363
G1 X108.467 Y134.034 E19.37362
G1 X107.877 Y134.493 E19.41092
G1 X107.241 Y134.888 E19.44827
G1 X106.567 Y135.212 E19.48558
G1 X105.862 Y135.462 E19.5229
G1 X105.134 Y135.636 E19.56024
G1 X104.392 Y135.731 E19.59756
G1 X103.875 Y135.75 E19.62337
G1 X103.5 Y135.75 E19.64208
G1 X102.753 Y135.71 E19.6794
G1 X102.015 Y135.591 E19.7167
G1 X101.293 Y135.393 E19.75405
G1 X100.597 Y135.12 E19.79135
G1 X99.934 Y134.773 E19.82868
G1 X99.311 Y134.358 E19.86603
G1 X98.55 Y133.7 E19.91622
G1 X96.55 Y131.7 E20.05733
G1 X96.05 Y131.143 E20.09467
G1 X95.613 Y130.537 E20.13195
G1 X95.242 Y129.887 E20.16929
G1 X94.943 Y129.201 E20.20662
G1 X94.719 Y128.487 E20.24395
G1 X94.572 Y127.754 E20.28125
G1 X94.5 Y126.75 E20.33147
G1 X94.5 Y95.75 E21.87807
G1 X94.54 Y95.003 E21.91539
G1 X94.659 Y94.265 E21.95268
G1 X94.857 Y93.543 E21.99003
G1 X95.13 Y92.847 E22.02733
G1 X95.477 Y92.184 E22.06466
G1 X95.892 Y91.561 E22.10201
G1 X96.55 Y90.8 E22.1522
G0 F7500 X96.833 Y91.083
G1 F1500 X98.833 Y89.083 E22.29331
G1 X99.374 Y88.599 E22.32953
G1 X99.965 Y88.176 E22.36579
G1 X100.599 Y87.822 E22.40201
G1 X101.268 Y87.539 E22.43825
G1 X101.964 Y87.331 E22.4745
G1 X102.679 Y87.201 E22.51075
G1 X103.5 Y87.15 E22.55179
G1 X116.5 Y87.15 E23.20036
G1 X117.225 Y87.19 E23.23659
G1 X117.942 Y87.309 E23.27285
G1 X118.641 Y87.507 E23.30909
G1 X119.314 Y87.78 E23.34533
G1 X119.953 Y88.125 E23.38156
G1 X120.55 Y88.539 E23.4178
G1 X121.167 Y89.083 E23.45884
G1 X123.167 Y91.083 E23.59995
G1 X123.651 Y91.624 E23.63617
G1 X124.074 Y92.215 E23.67243
G1 X124.428 Y92.849 E23.70865
G1 X124.711 Y93.518 E23.74489
G1 X124.919 Y94.214 E23.78113
G1 X125.049 Y94.929 E23.81739
G1 X125.1 Y95.75 E23.85843
G1 X125.1 Y126.75 E25.40503
G1 X125.06 Y127.475 E25.44125
G1 X124.941 Y128.192 E25.47751
G1 X124.743 Y128.891 E25.51376
G1 X124.47 Y129.564 E25.54999
G1 X124.125 Y130.203 E25.58622
G1 X123.711 Y130.8 E25.62247
G1 X123.167 Y131.417 E25.6635
G1 X121.167 Y133.417 E25.80461
G1 X120.626 Y133.901 E25.84083
G1 X120.035 Y134.324 E25.87709
G1 X119.401 Y134.678 E25.91332
G1 X118.732 Y134.961 E25.94956
G1 X118.036 Y135.169 E25.9858
G1 X117.321 Y135.299 E26.02205
G1 X116.5 Y135.35 E26.06309
G1 X116.125 Y135.35 E26.0818
G1 X115.4 Y135.31 E26.11803
G1 X114.683 Y135.191 E26.15429
G1 X113.984 Y134.993 E26.19053
G1 X113.311 Y134.72 E26.22677
G1 X112.672 Y134.375 E26.263
G1 X112.075 Y133.961 E26.29924
G1 X111.527 Y133.485 E26.33545
G1 X111.034 Y132.951 E26.37171
G1 X110.604 Y132.366 E26.40794
G1 X110.24 Y131.737 E26.44419
G1 X109.998 Y131.187 E26.47417
G1 X109.845 Y131.564 E26.49447
G1 X109.5 Y132.203 E26.5307
G1 X109.086 Y132.8 E26.56694
G1 X108.61 Y133.348 E26.60316
G1 X108.076 Y133.841 E26.63942
G1 X107.491 Y134.271 E26.67564
G1 X106.862 Y134.635 E26.7119
G1 X106.197 Y134.928 E26.74815
G1 X105.504 Y135.146 E26.78439
G1 X104.792 Y135.286 E26.8206
G1 X103.875 Y135.35 E26.86646
G1 X103.5 Y135.35 E26.88517
G1 X102.775 Y135.31 E26.92139
G1 X102.058 Y135.191 E26.95765
G1 X101.359 Y134.993 E26.9939
G1 X100.686 Y134.72 E27.03013
G1 X100.047 Y134.375 E27.06636
G1 X99.45 Y133.961 E27.10261
G1 X98.833 Y133.417 E27.14364
G1 X96.833 Y131.417 E27.28475
G1 X96.349 Y130.876 E27.32097
G1 X95.926 Y130.285 E27.35723
G1 X95.572 Y129.651 E27.39346
G1 X95.289 Y128.982 E27.4297
G1 X95.081 Y128.286 E27.46594
G1 X94.951 Y127.571 E27.50219
G1 X94.9 Y126.75 E27.54323
G1 X94.9 Y95.75 E29.08983
G1 X94.94 Y95.025 E29.12605
G1 X95.059 Y94.308 E29.16231
G1 X95.257 Y93.609 E29.19856
G1 X95.53 Y92.936 E29.23479
G1 X95.875 Y92.297 E29.27102
G1 X96.289 Y91.7 E29.30727
G1 X96.833 Y91.083 E29.34831
G0 F7500 X97.116 Y91.366
G1 F1500 X99.116 Y89.366 E29.48942
G1 X99.641 Y88.897 E29.52454
G1 X100.216 Y88.491 E29.55966
G1 X100.834 Y88.153 E29.5948
G1 X101.485 Y87.886 E29.6299
G1 X102.163 Y87.696 E29.66503
G1 X102.858 Y87.583 E29.70016
G1 X103.5 Y87.55 E29.73223
G1 X116.5 Y87.55 E30.3808
G1 X117.203 Y87.59 E30.41593
G1 X117.897 Y87.709 E30.45106
G1 X118.572 Y87.907 E30.48616
G1 X119.221 Y88.179 E30.52127
G1 X119.835 Y88.524 E30.5564
G1 X120.406 Y88.935 E30.5915
G1 X120.884 Y89.366 E30.62361
G1 X122.884 Y91.366 E30.76472
G1 X123.353 Y91.891 E30.79985
G1 X123.759 Y92.466 E30.83496
G1 X124.097 Y93.084 E30.8701
G1 X124.364 Y93.735 E30.90521
G1 X124.554 Y94.413 E30.94034
G1 X124.667 Y95.108 E30.97547
G1 X124.7 Y95.75 E31.00754
G1 X124.7 Y126.75 E32.55413
G1 X124.66 Y127.453 E32.58926
G1 X124.541 Y128.147 E32.62439
G1 X124.343 Y128.822 E32.65949
G1 X124.071 Y129.471 E32.6946
G1 X123.726 Y130.085 E32.72973
G1 X123.315 Y130.656 E32.76483
G1 X122.884 Y131.134 E32.79694
G1 X120.884 Y133.134 E32.93805
G1 X120.359 Y133.603 E32.97317
G1 X119.784 Y134.009 E33.00829
G1 X119.166 Y134.347 E33.04343
G1 X118.515 Y134.614 E33.07854
G1 X117.837 Y134.804 E33.11367
G1 X117.142 Y134.917 E33.1488
G1 X116.5 Y134.95 E33.18087
G1 X116.125 Y134.95 E33.19958
G1 X115.422 Y134.91 E33.23471
G1 X114.728 Y134.791 E33.26983
G1 X114.053 Y134.593 E33.30493
G1 X113.404 Y134.321 E33.34004
G1 X112.79 Y133.976 E33.37517
G1 X112.219 Y133.565 E33.41027
G1 X111.698 Y133.091 E33.44541
G1 X111.234 Y132.561 E33.48056
G1 X110.834 Y131.982 E33.51567
G1 X110.502 Y131.361 E33.5508
G1 X110.242 Y130.707 E33.58591
G1 X110.058 Y130.027 E33.62106
G1 X110.001 Y129.652 E33.63998
G1 X109.916 Y130.147 E33.66504
G1 X109.718 Y130.822 E33.70013
G1 X109.446 Y131.471 E33.73524
G1 X109.101 Y132.085 E33.77038
G1 X108.69 Y132.656 E33.80548
G1 X108.216 Y133.177 E33.84062
G1 X107.686 Y133.641 E33.87576
G1 X107.107 Y134.041 E33.91087
G1 X106.486 Y134.373 E33.946
G1 X105.832 Y134.633 E33.98111
G1 X105.152 Y134.817 E34.01626
G1 X104.456 Y134.923 E34.05138
G1 X103.875 Y134.95 E34.0804
G1 X103.5 Y134.95 E34.09911
G1 X102.797 Y134.91 E34.13424
G1 X102.103 Y134.791 E34.16937
G1 X101.428 Y134.593 E34.20446
G1 X100.779 Y134.321 E34.23957
G1 X100.165 Y133.976 E34.27471
G1 X99.594 Y133.565 E34.30981
G1 X99.116 Y133.134 E34.34192
G1 X97.116 Y131.134 E34.48303
G1 X96.647 Y130.609 E34.51815
G1 X96.241 Y130.034 E34.55327
G1 X95.903 Y129.416 E34.58841
G1 X95.636 Y128.765 E34.62351
G1 X95.446 Y128.087 E34.65864
G1 X95.333 Y127.392 E34.69377
G1 X95.3 Y126.75 E34.72584
G1 X95.3 Y95.75 E36.27244
G1 X95.34 Y95.047 E36.30757
G1 X95.459 Y94.353 E36.3427
G1 X95.657 Y93.678 E36.37779
G1 X95.929 Y93.029 E36.4129
G1 X96.274 Y92.415 E36.44804
G1 X96.685 Y91.844 E36.48313
G1 X97.116 Y91.366 E36.51524
G0 F7500 X97.399 Y91.649
G1 F1500 X99.399 Y89.649 E36.65636
G1 X99.908 Y89.196 E36.69035
G1 X100.466 Y88.807 E36.72429
G1 X101.066 Y88.485 E36.75826
G1 X101.7 Y88.236 E36.79224
G1 X102.359 Y88.063 E36.82623
G1 X103.033 Y87.969 E36.86018
G1 X103.5 Y87.95 E36.8835
G1 X116.5 Y87.95 E37.53207
G1 X117.18 Y87.99 E37.56606
G1 X117.85 Y88.109 E37.60001
G1 X118.502 Y88.306 E37.63399
G1 X119.126 Y88.578 E37.66795
G1 X119.714 Y88.922 E37.70194
G1 X120.258 Y89.332 E37.73592
G1 X120.601 Y89.649 E37.75922
G1 X122.601 Y91.649 E37.90033
G1 X123.054 Y92.158 E37.93433
G1 X123.443 Y92.716 E37.96826
G1 X123.765 Y93.316 E38.00224
G1 X124.014 Y93.95 E38.03622
G1 X124.187 Y94.609 E38.07021
G1 X124.281 Y95.283 E38.10416
G1 X124.3 Y95.75 E38.12748
G1 X124.3 Y126.75 E39.67408
G1 X124.26 Y127.43 E39.70806
G1 X124.141 Y128.1 E39.74201
G1 X123.944 Y128.752 E39.77599
G1 X123.672 Y129.376 E39.80995
G1 X123.328 Y129.964 E39.84394
G1 X122.918 Y130.508 E39.87792
G1 X122.601 Y130.851 E39.90122
G1 X120.601 Y132.851 E40.04234
G1 X120.092 Y133.304 E40.07633
G1 X119.534 Y133.693 E40.11027
G1 X118.934 Y134.015 E40.14424
G1 X118.3 Y134.264 E40.17822
G1 X117.641 Y134.437 E40.21221
G1 X116.967 Y134.531 E40.24616
G1 X116.5 Y134.55 E40.26948
G1 X116.125 Y134.55 E40.28819
G1 X115.445 Y134.51 E40.32217
G1 X114.775 Y134.391 E40.35612
G1 X114.123 Y134.194 E40.39011
G1 X113.499 Y133.922 E40.42407
G1 X112.911 Y133.578 E40.45805
G1 X112.367 Y133.168 E40.49204
G1 X111.876 Y132.697 E40.52598
G1 X111.442 Y132.172 E40.55997
G1 X111.073 Y131.6 E40.59393
G1 X110.774 Y130.988 E40.62791
G1 X110.549 Y130.346 E40.66185
G1 X110.4 Y129.681 E40.69585
G1 X110.325 Y128.75 E40.74245
G1 X110.325 Y126.297 E40.86483
G1 X110.365 Y125.617 E40.89881
G1 X110.484 Y124.947 E40.93276
G1 X110.7 Y124.232 E40.97002
G1 X110.7 Y101.55 E42.10163
G1 X109.3 Y101.55 E42.17148
G1 X109.3 Y124.27 E43.30498
G1 X109.389 Y124.497 E43.31715
G1 X109.562 Y125.156 E43.35114
G1 X109.656 Y125.83 E43.38509
G1 X109.675 Y126.297 E43.40841
G1 X109.675 Y128.75 E43.53079
G1 X109.635 Y129.43 E43.56477
G1 X109.516 Y130.1 E43.59872
G1 X109.319 Y130.752 E43.6327
G1 X109.047 Y131.376 E43.66667
G1 X108.703 Y131.964 E43.70065
G1 X108.293 Y132.508 E43.73464
G1 X107.822 Y132.999 E43.76858
G1 X107.297 Y133.433 E43.80257
G1 X106.725 Y133.802 E43.83653
G1 X106.113 Y134.101 E43.87051
