;FLAVOR:Marlin
;TIME:4394
;Filament used: 2.34553m
;Layer height: 0.15
;MINX:99.35
;MINY:89.1
;MINZ:0.3
;MAXX:120.651
;MAXY:129.108
;MAXZ:42
;Generated with Cura_SteamEngine 5.2.1
M140 S60
M105
M190 S60
M104 S210
M105
M109 S210
M82 ;absolute extrusion mode
G28 ;Home
G1 Z15.0 F2000 ;Move the platform
G92 E0
G92 E0
G1 F2400 E-3
;LAYER_COUNT:279
;LAYER:0
M107
M204 S1000
G0 F7500 X100.48 Y91.245 Z0.3
;TYPE:SKIRT
G1 F2400 E0
G1 F1500 X100.904 Y90.805 E0.03049
G1 X101.49 Y90.235 E0.07127
G1 X101.923 Y89.871 E0.09949
G1 X102.403 Y89.573 E0.12768
G1 X102.921 Y89.345 E0.15591
G1 X103.465 Y89.192 E0.18411
G1 X104.199 Y89.111 E0.22095
G1 X104.828 Y89.1 E0.25234
G1 X115.084 Y89.1 E0.76401
G1 X115.785 Y89.11 E0.79899
G1 X116.348 Y89.158 E0.82718
G1 X116.899 Y89.285 E0.85539
G1 X117.427 Y89.489 E0.88363
G1 X117.92 Y89.764 E0.91179
G1 X118.494 Y90.221 E0.94839
G1 X118.994 Y90.703 E0.98304
G1 X119.507 Y91.23 E1.01973
G1 X119.872 Y91.662 E1.04795
G1 X120.172 Y92.141 E1.07615
G1 X120.402 Y92.657 E1.10433
G1 X120.556 Y93.201 E1.13254
G1 X120.64 Y93.954 E1.17034
G1 X120.651 Y94.629 E1.20402
G1 X120.651 Y122.834 E2.61117
G1 X120.641 Y123.545 E2.64665
G1 X120.593 Y124.109 E2.67489
G1 X120.466 Y124.659 E2.70305
G1 X120.263 Y125.187 E2.73127
G1 X119.987 Y125.681 E2.7595
G1 X119.476 Y126.311 E2.79997
G1 X118.312 Y127.479 E2.88224
G1 X117.811 Y127.966 E2.9171
G1 X117.379 Y128.331 E2.94531
G1 X116.9 Y128.63 E2.97349
G1 X116.383 Y128.86 E3.00172
G1 X115.839 Y129.014 E3.02992
G1 X115.102 Y129.097 E3.06692
G1 X114.514 Y129.108 E3.09627
G1 X105.613 Y129.107 E3.54034
G1 X104.913 Y129.096 E3.57527
G1 X104.35 Y129.047 E3.60346
G1 X103.799 Y128.919 E3.63168
G1 X103.272 Y128.715 E3.65987
G1 X102.779 Y128.439 E3.68806
G1 X102.199 Y127.975 E3.72512
G1 X101.834 Y127.623 E3.75042
G1 X100.996 Y126.785 E3.80954
G1 X100.496 Y126.272 E3.84528
G1 X100.131 Y125.84 E3.8735
G1 X99.83 Y125.361 E3.90172
G1 X99.6 Y124.845 E3.92991
G1 X99.445 Y124.301 E3.95813
G1 X99.361 Y123.555 E3.99558
G1 X99.35 Y122.945 E4.02602
G1 X99.35 Y94.666 E5.43686
G1 X99.36 Y93.964 E5.47189
G1 X99.408 Y93.401 E5.50008
G1 X99.535 Y92.85 E5.52829
G1 X99.739 Y92.322 E5.55653
G1 X100.014 Y91.829 E5.58469
G1 X100.48 Y91.245 E5.62197
G0 F7500 X100.768 Y91.523
G1 F1500 X101.281 Y90.993 E5.65877
G1 X101.768 Y90.522 E5.69257
G1 X102.18 Y90.179 E5.71931
G1 X102.639 Y89.901 E5.74609
G1 X103.134 Y89.694 E5.77285
G1 X103.654 Y89.563 E5.79961
G1 X104.206 Y89.511 E5.82727
G1 X104.828 Y89.5 E5.85831
G1 X115.078 Y89.5 E6.36968
G1 X115.779 Y89.51 E6.40466
G1 X116.314 Y89.558 E6.43146
G1 X116.835 Y89.684 E6.4582
G1 X117.331 Y89.887 E6.48494
G1 X117.792 Y90.161 E6.51169
G1 X118.218 Y90.51 E6.53917
G1 X118.708 Y90.982 E6.57311
G1 X119.221 Y91.509 E6.6098
G1 X119.565 Y91.92 E6.63654
G1 X119.845 Y92.378 E6.66332
G1 X120.053 Y92.872 E6.69006
G1 X120.186 Y93.391 E6.71679
G1 X120.241 Y93.961 E6.74536
G1 X120.251 Y94.57 E6.77575
G1 X120.251 Y122.829 E8.1856
G1 X120.241 Y123.54 E8.22107
G1 X120.193 Y124.074 E8.24782
G1 X120.067 Y124.595 E8.27456
G1 X119.865 Y125.092 E8.30133
G1 X119.591 Y125.553 E8.32808
G1 X119.192 Y126.029 E8.35907
G1 X118.033 Y127.192 E8.44099
G1 X117.532 Y127.679 E8.47584
G1 X117.121 Y128.024 E8.50261
G1 X116.663 Y128.303 E8.52937
G1 X116.169 Y128.511 E8.55611
G1 X115.649 Y128.643 E8.58288
G1 X115.094 Y128.697 E8.6107
G1 X114.514 Y128.708 E8.63964
G1 X105.619 Y128.707 E9.08341
G1 X104.919 Y128.696 E9.11834
G1 X104.385 Y128.647 E9.14509
G1 X103.864 Y128.52 E9.17185
G1 X103.368 Y128.317 E9.19858
G1 X102.907 Y128.042 E9.22537
G1 X102.477 Y127.687 E9.25318
G1 X102.065 Y127.29 E9.28173
G1 X101.282 Y126.506 E9.33701
G1 X100.782 Y125.993 E9.37275
G1 X100.437 Y125.582 E9.39952
G1 X100.157 Y125.124 E9.4263
G1 X99.949 Y124.63 E9.45304
G1 X99.816 Y124.111 E9.47977
G1 X99.761 Y123.547 E9.50804
G1 X99.75 Y122.945 E9.53808
G1 X99.75 Y94.672 E10.94863
G1 X99.76 Y93.97 E10.98365
G1 X99.808 Y93.436 E11.0104
G1 X99.934 Y92.914 E11.03719
G1 X100.137 Y92.418 E11.06393
G1 X100.411 Y91.957 E11.09069
G1 X100.768 Y91.523 E11.11872
G0 F7500 X101.056 Y91.801
G1 F1500 X101.559 Y91.281 E11.15482
G1 X102.046 Y90.81 E11.18862
G1 X102.436 Y90.488 E11.21385
G1 X102.872 Y90.232 E11.23908
G1 X103.343 Y90.048 E11.2643
G1 X103.837 Y89.94 E11.28953
G1 X104.214 Y89.911 E11.30839
G1 X104.828 Y89.9 E11.33903
G1 X115.073 Y89.9 E11.85016
G1 X115.774 Y89.91 E11.88513
G1 X116.277 Y89.957 E11.91034
G1 X116.767 Y90.083 E11.93558
G1 X117.23 Y90.285 E11.96078
G1 X117.657 Y90.557 E11.98604
G1 X117.941 Y90.799 E12.00465
G1 X118.421 Y91.261 E12.03789
G1 X118.934 Y91.788 E12.07458
G1 X119.257 Y92.177 E12.09981
G1 X119.515 Y92.612 E12.12504
G1 X119.7 Y93.082 E12.15024
G1 X119.81 Y93.576 E12.17549
G1 X119.841 Y93.967 E12.19506
G1 X119.851 Y94.576 E12.22545
G1 X119.851 Y122.823 E13.6347
G1 X119.841 Y123.534 E13.67017
G1 X119.794 Y124.037 E13.69537
G1 X119.668 Y124.527 E13.72062
G1 X119.467 Y124.991 E13.74584
G1 X119.195 Y125.417 E13.77106
G1 X118.909 Y125.747 E13.79285
G1 X117.754 Y126.906 E13.87448
G1 X117.253 Y127.393 E13.90934
G1 X116.864 Y127.715 E13.93453
G1 X116.429 Y127.973 E13.95976
G1 X115.959 Y128.158 E13.98496
G1 X115.465 Y128.267 E14.0102
G1 X115.086 Y128.297 E14.02917
G1 X114.514 Y128.308 E14.05771
G1 X105.626 Y128.307 E14.50113
G1 X104.926 Y128.296 E14.53606
G1 X104.422 Y128.248 E14.56132
G1 X103.933 Y128.121 E14.58653
G1 X103.469 Y127.919 E14.61177
G1 X103.044 Y127.647 E14.63695
G1 X102.755 Y127.399 E14.65595
G1 X102.348 Y127.007 E14.68414
G1 X101.568 Y126.227 E14.73917
G1 X101.068 Y125.714 E14.77491
G1 X100.745 Y125.325 E14.80014
G1 X100.487 Y124.89 E14.82537
G1 X100.301 Y124.42 E14.85059
G1 X100.191 Y123.926 E14.87584
G1 X100.161 Y123.54 E14.89515
G1 X100.15 Y122.945 E14.92484
G1 X100.15 Y94.677 E16.33514
G1 X100.16 Y93.975 E16.37016
G1 X100.207 Y93.472 E16.39537
G1 X100.333 Y92.982 E16.42061
G1 X100.535 Y92.519 E16.44581
G1 X100.806 Y92.092 E16.47104
G1 X101.056 Y91.801 E16.49018
G1 F2400 E13.49018
;MESH:Right Leg.obj
G0 F7500 X106.599 Y104.744
G0 X109.713 Y113.817
;TYPE:WALL-INNER
G1 F2400 E16.49018
G1 F1500 X109.094 Y113.744 E16.52128
G1 X108.483 Y113.593 E16.55268
G1 X107.882 Y113.363 E16.58478
G1 X107.292 Y113.04 E16.61834
G1 X106.725 Y112.625 E16.6534
G1 X106.31 Y112.233 E16.68188
G1 X105.945 Y111.802 E16.71005
G1 X105.567 Y111.229 E16.7443
G1 X105.28 Y110.613 E16.77821
G1 X105.099 Y110.071 E16.80671
G1 X104.969 Y109.423 E16.83969
G1 X104.927 Y108.712 E16.87522
G1 X104.972 Y108.068 E16.90743
G1 X105.081 Y107.504 E16.93609
G1 X105.281 Y106.888 E16.9684
G1 X105.549 Y106.314 E17
G1 X105.853 Y105.827 E17.02865
G1 X106.256 Y105.325 E17.06076
G1 X106.749 Y104.852 E17.09485
G1 X107.248 Y104.488 E17.12566
G1 X107.812 Y104.172 E17.15792
G1 X108.413 Y103.931 E17.19022
G1 X109.081 Y103.759 E17.22464
G1 X109.6 Y103.692 E17.25074
G1 X110.318 Y103.685 E17.28657
G1 X110.887 Y103.753 E17.31516
G1 X111.588 Y103.93 E17.35123
G1 X112.118 Y104.138 E17.37963
G1 X112.69 Y104.448 E17.41209
G1 X113.25 Y104.853 E17.44657
G1 X113.736 Y105.317 E17.48009
G1 X114.097 Y105.755 E17.50841
G1 X114.449 Y106.308 E17.54111
G1 X114.719 Y106.884 E17.57285
G1 X114.92 Y107.503 E17.60532
G1 X115.029 Y108.067 E17.63398
G1 X115.075 Y108.749 E17.66808
G1 X115.03 Y109.422 E17.70173
G1 X114.898 Y110.072 E17.73482
G1 X114.694 Y110.676 E17.76663
G1 X114.451 Y111.186 E17.79481
G1 X114.103 Y111.735 E17.82724
G1 X113.744 Y112.175 E17.85557
G1 X113.277 Y112.625 E17.88793
G1 X112.689 Y113.052 E17.92418
G1 X112.117 Y113.362 E17.95664
G1 X111.516 Y113.591 E17.98873
G1 X110.918 Y113.741 E18.01949
G1 X110.364 Y113.812 E18.04735
G1 X109.713 Y113.817 E18.07983
G0 F7500 X109.154 Y113.348
;TYPE:WALL-OUTER
G1 F1500 X108.581 Y113.205 E18.1093
G1 X108.028 Y112.99 E18.1389
G1 X107.498 Y112.698 E18.16909
G1 X107 Y112.334 E18.19986
G1 X106.569 Y111.925 E18.22951
G1 X106.239 Y111.527 E18.2553
G1 X105.925 Y111.044 E18.28404
G1 X105.66 Y110.486 E18.31486
G1 X105.479 Y109.944 E18.34337
G1 X105.363 Y109.354 E18.37337
G1 X105.326 Y108.738 E18.40415
G1 X105.365 Y108.144 E18.43385
G1 X105.474 Y107.58 E18.46251
G1 X105.669 Y106.993 E18.49337
G1 X105.877 Y106.547 E18.51792
G1 X106.208 Y106.018 E18.54905
G1 X106.566 Y105.578 E18.57735
G1 X107.007 Y105.158 E18.60774
G1 X107.504 Y104.798 E18.63835
G1 X108.005 Y104.522 E18.66689
G1 X108.559 Y104.304 E18.69659
G1 X109.15 Y104.153 E18.72703
G1 X109.651 Y104.089 E18.75222
G1 X110.27 Y104.083 E18.78311
G1 X110.84 Y104.151 E18.81175
G1 X111.442 Y104.303 E18.84272
G1 X111.972 Y104.51 E18.87111
G1 X112.496 Y104.798 E18.90094
G1 X113 Y105.166 E18.93207
G1 X113.429 Y105.573 E18.96158
G1 X113.761 Y105.973 E18.98751
G1 X114.075 Y106.456 E19.01625
G1 X114.339 Y107.011 E19.04692
G1 X114.527 Y107.579 E19.07676
G1 X114.636 Y108.143 E19.10542
G1 X114.675 Y108.749 E19.13572
G1 X114.635 Y109.356 E19.16607
G1 X114.526 Y109.92 E19.19473
G1 X114.331 Y110.507 E19.22559
G1 X114.123 Y110.953 E19.25014
G1 X113.793 Y111.482 E19.28124
G1 X113.434 Y111.922 E19.30958
G1 X113.001 Y112.335 E19.33943
G1 X112.495 Y112.702 E19.37061
G1 X111.971 Y112.989 E19.40042
G1 X111.441 Y113.196 E19.42881
G1 X110.85 Y113.347 E19.45924
G1 X110.337 Y113.412 E19.48504
G1 X109.757 Y113.419 E19.51398
G1 X109.154 Y113.348 E19.54427
G0 F7500 X108.96 Y113.3
G1 F2400 E16.54427
G0 F7500 X108.839 Y113.786
G0 X109.624 Y113.99
G0 X109.719 Y115.008
G0 X109.745 Y120.315
;TYPE:WALL-INNER
G1 F2400 E19.54427
G1 F1500 X109.306 Y120.232 E19.56656
G1 X108.856 Y120.06 E19.59059
G1 X108.441 Y119.803 E19.61495
G1 X108.152 Y119.539 E19.63447
G1 X108.083 Y119.465 E19.63952
G1 X107.817 Y119.123 E19.66114
G1 X107.596 Y118.68 E19.68584
G1 X107.466 Y118.207 E19.71031
G1 X107.423 Y117.778 E19.73182
G1 X107.462 Y117.292 E19.75615
G1 X107.598 Y116.817 E19.7808
G1 X107.817 Y116.38 E19.80518
G1 X108.084 Y116.027 E19.82726
G1 X108.436 Y115.698 E19.8513
G1 X108.856 Y115.44 E19.87589
G1 X109.31 Y115.267 E19.90013
G1 X109.74 Y115.188 E19.92194
G1 X110.261 Y115.189 E19.94794
G1 X110.705 Y115.27 E19.97045
G1 X111.123 Y115.432 E19.99282
G1 X111.542 Y115.681 E20.01714
G1 X111.903 Y116.013 E20.0416
G1 X112.192 Y116.397 E20.06558
G1 X112.395 Y116.801 E20.08814
G1 X112.532 Y117.258 E20.11194
G1 X112.575 Y117.748 E20.13648
G1 X112.53 Y118.228 E20.16053
G1 X112.413 Y118.655 E20.18262
G1 X112.197 Y119.097 E20.20717
G1 X111.904 Y119.486 E20.23146
G1 X111.546 Y119.812 E20.25562
G1 X111.164 Y120.049 E20.27805
G1 X110.717 Y120.228 E20.30207
G1 X110.234 Y120.316 E20.32656
G1 X109.745 Y120.315 E20.35096
G0 F7500 X109.437 Y119.85
;TYPE:WALL-OUTER
G1 F1500 X109.018 Y119.69 E20.37334
G1 X108.696 Y119.491 E20.39222
G1 X108.399 Y119.219 E20.41231
G1 X108.149 Y118.893 E20.43281
G1 X107.979 Y118.552 E20.45182
G1 X107.86 Y118.138 E20.47331
G1 X107.826 Y117.793 E20.4906
G1 X107.857 Y117.378 E20.51137
G1 X107.966 Y116.983 E20.53181
G1 X108.168 Y116.58 E20.5543
G1 X108.371 Y116.311 E20.57111
G1 X108.697 Y116.007 E20.59335
G1 X109.017 Y115.811 E20.61207
G1 X109.409 Y115.657 E20.63308
G1 X109.782 Y115.586 E20.65203
G1 X110.204 Y115.585 E20.67308
G1 X110.618 Y115.665 E20.69412
G1 X110.932 Y115.787 E20.71092
G1 X111.317 Y116.018 E20.73332
G1 X111.592 Y116.27 E20.75193
G1 X111.841 Y116.595 E20.77236
G1 X112.025 Y116.96 E20.79275
G1 X112.139 Y117.355 E20.81326
G1 X112.175 Y117.748 E20.83295
G1 X112.136 Y118.159 E20.85355
G1 X112.041 Y118.498 E20.87111
G1 X111.842 Y118.905 E20.89372
G1 X111.616 Y119.203 E20.91238
G1 X111.313 Y119.483 E20.93296
G1 X110.969 Y119.696 E20.95314
G1 X110.624 Y119.834 E20.97168
G1 X110.21 Y119.914 E20.99272
G1 X109.801 Y119.915 E21.01312
G1 X109.437 Y119.85 E21.03157
G0 F7500 X109.25 Y119.779
G1 F2400 E18.03157
G0 F7500 X109.069 Y120.249
G0 X108.392 Y119.985
G0 X108.392 Y124.307
G0 X105.224 Y124.507
;TYPE:WALL-INNER
G1 F2400 E21.03157
G1 F1500 X114.777 Y124.508 E21.50817
G1 X116.051 Y123.235 E21.59802
G1 X116.051 Y101.534 E22.68069
G1 X115.672 Y101.85 E22.70531
G1 X104.328 Y101.85 E23.27127
G1 X103.95 Y101.533 E23.29588
G1 X103.95 Y123.234 E24.37854
G1 X105.224 Y124.507 E24.4684
G0 F7500 X105.058 Y124.907
;TYPE:WALL-OUTER
G1 F1500 X114.943 Y124.908 E24.96156
G1 X116.451 Y123.401 E25.06792
G1 X116.451 Y102.229 E26.1242
G1 F1345.3 X116.405 Y101.335 E26.174
G1 F1224.5 X116.407 Y94.219 E26.60889
G1 F1227 X116.407 Y94.118 E26.61505
G1 F1304.3 X116.255 Y93.926 E26.6291
G1 F1507.5 X116.062 Y93.688 E26.64431
G1 X115.824 Y93.495 E26.65953
G1 F1307.2 X115.632 Y93.345 E26.67347
G1 F1229.5 X104.369 Y93.344 E27.35901
G1 F1307.2 X104.176 Y93.496 E27.37307
G1 F1503.8 X103.938 Y93.689 E27.38832
G1 X103.746 Y93.926 E27.4035
G1 F1307.2 X103.594 Y94.119 E27.41757
G1 F1222 X103.596 Y101.335 E27.85947
G1 F1345.3 X103.55 Y102.228 E27.90922
G1 F1500 X103.55 Y123.4 E28.96549
G1 X105.058 Y124.907 E29.07185
G0 F7500 X105.258 Y124.907
G1 F2400 E26.07185
G0 F7500 X105.208 Y124.348
G0 X104.114 Y123.166
G0 X103.828 Y101.293
G1 F2400 E29.07185
G0 F7500 X104.085 Y101.293
G1 F1222 X104.084 Y94.22 E29.50501
G1 F1307.2 X104.113 Y94.078 E29.5133
G1 F1503.8 X104.197 Y93.948 E29.52101
G1 X104.328 Y93.863 E29.52878
G1 F1307.2 X104.47 Y93.834 E29.53707
G1 F1229.5 X115.531 Y93.833 E30.21031
G1 F1307.2 X115.672 Y93.862 E30.21855
G1 F1507.5 X115.803 Y93.947 E30.22631
G1 X115.887 Y94.078 E30.23403
G1 F1304.3 X115.917 Y94.219 E30.2423
G1 F1224.5 X115.916 Y101.293 E30.67463
G1 F1345.3 X115.672 Y101.45 E30.69077
G1 F1500 X104.328 Y101.45 E31.25673
G1 F1345.3 X104.085 Y101.293 E31.27282
G0 F7500 X104.085 Y101.093
G1 F2400 E28.27282
G0 F7500 X103.828 Y101.093
G0 X103.9 Y101.678
G0 X115.108 Y101.67
G0 X114.249 Y105.657
G0 X115.542 Y108.07
;TYPE:SKIN
G1 F2400 E31.27282
G1 F886.3 X115.563 Y108.766 E31.33162
G1 F905 X115.556 Y108.998 E31.35081
G1 F2400 E28.35081
G0 F7500 X115.132 Y109.407
G0 X114.327 Y111.08
G0 X113.996 Y111.611
G0 X113.6 Y112.097
G0 X113.143 Y112.529
G0 X111.008 Y113.906
G0 X111.008 Y124.307
G0 X105.374 Y124.147
G1 F2400 E31.35081
G1 F1500 X114.627 Y124.148 E31.81245
G1 X115.691 Y123.085 E31.88748
G1 X115.691 Y110.101 E32.53526
G1 F1604.3 X115.717 Y109.397 E32.56812
G1 F1178.8 X115.556 Y108.998 E32.59543
G1 X115.368 Y109.385 E32.62275
G1 F1694.9 X115.348 Y109.542 E32.62973
G1 F1578.9 X115.273 Y110.063 E32.65468
G1 F1500 X115.052 Y110.745 E32.69045
G1 X114.815 Y111.27 E32.71919
G1 X114.381 Y111.966 E32.76011
G1 X113.977 Y112.458 E32.79187
G1 X113.487 Y112.922 E32.82554
G1 X112.895 Y113.35 E32.86198
G1 X112.333 Y113.66 E32.894
G1 X111.683 Y113.919 E32.92891
G1 X110.97 Y114.097 E32.96557
G1 X110.819 Y114.116 E32.97317
G1 F1290.3 X110.345 Y114.237 E33.00154
G1 F1136.4 X109.682 Y114.242 E33.0452
G1 F1295.9 X109.212 Y114.118 E33.07327
G1 F1500 X108.969 Y114.087 E33.08549
G1 X108.372 Y113.935 E33.11623
G1 X107.709 Y113.683 E33.15162
G1 X107.103 Y113.348 E33.18616
G1 X106.515 Y112.92 E33.22244
G1 X106.062 Y112.496 E33.2534
G1 X105.669 Y112.033 E33.2837
G1 X105.262 Y111.422 E33.32033
G1 X104.948 Y110.763 E33.35674
G1 X104.741 Y110.14 E33.3895
G1 X104.608 Y109.455 E33.42431
G1 F1600 X104.632 Y109.447 E33.42549
G1 F1769.9 X104.601 Y108.739 E33.45546
G1 X104.633 Y108.053 E33.48449
G1 F1600 X104.727 Y107.435 E33.51373
G1 F1500 X104.98 Y106.67 E33.55393
G1 X105.197 Y106.206 E33.57949
G1 X105.617 Y105.537 E33.6189
G1 X105.974 Y105.098 E33.64713
G1 X106.515 Y104.578 E33.68456
G1 X107.096 Y104.154 E33.72045
G1 X107.634 Y103.857 E33.75111
G1 X108.293 Y103.59 E33.78658
G1 X109.029 Y103.4 E33.8245
G1 X109.556 Y103.335 E33.85099
G1 X110.315 Y103.322 E33.88887
G1 X111.057 Y103.418 E33.92619
G1 X111.718 Y103.595 E33.96033
G1 X112.299 Y103.82 E33.99142
G1 X112.969 Y104.2 E34.02984
G1 X113.491 Y104.584 E34.06217
G1 X113.949 Y105.016 E34.09359
G1 X114.33 Y105.465 E34.12296
G1 X114.739 Y106.081 E34.15985
G1 X115.048 Y106.731 E34.19576
G1 X115.267 Y107.392 E34.2305
G1 F1265.8 X115.404 Y107.731 E34.25212
G1 F963.1 X115.542 Y108.07 E34.28056
G1 X115.616 Y107.712 E34.30896
G1 F1265.8 X115.691 Y107.354 E34.33059
G1 F1500 X115.691 Y102.198 E34.58782
G1 X115.657 Y102.21 E34.58962
G1 X104.311 Y102.21 E35.15567
G1 X104.311 Y107.396 E35.41441
G1 F1604.3 X104.284 Y108.064 E35.44559
G1 F1780.4 X104.273 Y108.77 E35.47527
G1 F1769.9 X104.285 Y109.477 E35.50517
