;FLAVOR:Marlin
;TIME:4381
;Filament used: 2.30598m
;Layer height: 0.15
;MINX:97.5
;MINY:89.75
;MINZ:0.3
;MAXX:122.5
;MAXY:128.55
;MAXZ:42
;Generated with Cura_SteamEngine 5.2.1
M140 S60
M105
M190 S60
M104 S210
M105
M109 S210
M82 ;absolute extrusion mode
G28 ;Home
G1 Z15.0 F2000 ;Move the platform
G92 E0
G92 E0
G1 F2400 E-3
;LAYER_COUNT:279
;LAYER:0
M107
M204 S1000
G0 F7500 X98.817 Y92.78 Z0.3
;TYPE:SKIRT
G1 F2400 E0
G1 F1500 X100.234 Y91.359 E0.10012
G1 X100.72 Y90.888 E0.13388
G1 X101.153 Y90.524 E0.1621
G1 X101.633 Y90.225 E0.19032
G1 X102.15 Y89.996 E0.21853
G1 X102.694 Y89.843 E0.24672
G1 X103.432 Y89.761 E0.28377
G1 X104.062 Y89.75 E0.3152
G1 X115.85 Y89.75 E0.90331
G1 X116.551 Y89.76 E0.93828
G1 X117.114 Y89.808 E0.96648
G1 X117.665 Y89.935 E0.99469
G1 X118.193 Y90.139 E1.02293
G1 X118.686 Y90.414 E1.05109
G1 X119.205 Y90.819 E1.08393
G1 X119.471 Y91.068 E1.10211
G1 X120.894 Y92.488 E1.2024
G1 X121.365 Y92.975 E1.23621
G1 X121.729 Y93.408 E1.26443
G1 X122.027 Y93.888 E1.29261
G1 X122.255 Y94.406 E1.32085
G1 X122.408 Y94.95 E1.34904
G1 X122.489 Y95.684 E1.38588
G1 X122.5 Y96.313 E1.41727
G1 X122.5 Y122.72 E2.73472
G1 X122.49 Y123.446 E2.77094
G1 X122.442 Y124.009 E2.79914
G1 X122.315 Y124.56 E2.82735
G1 X122.112 Y125.088 E2.85557
G1 X121.837 Y125.582 E2.88377
G1 X121.495 Y126.032 E2.91197
G1 X121.092 Y126.429 E2.9402
G1 X120.638 Y126.765 E2.96837
G1 X120.141 Y127.034 E2.99657
G1 X119.611 Y127.231 E3.02478
G1 X119.058 Y127.35 E3.053
G1 X118.6 Y127.389 E3.07593
G1 X118.168 Y127.4 E3.09749
G1 X117.124 Y127.401 E3.14958
G1 X116.352 Y127.389 E3.1881
G1 X115.764 Y127.364 E3.21746
G1 X114.034 Y127.266 E3.30391
G1 X111.367 Y127.191 E3.43702
G1 X108.624 Y127.191 E3.57387
G1 X105.909 Y127.269 E3.70937
G1 X103.626 Y127.388 E3.82343
G1 X103.17 Y127.4 E3.84618
G1 X102.155 Y127.4 E3.89682
G1 X101.457 Y127.391 E3.93165
G1 X100.894 Y127.343 E3.95984
G1 X100.343 Y127.217 E3.98804
G1 X99.815 Y127.015 E4.01624
G1 X99.321 Y126.74 E4.04445
G1 X98.871 Y126.398 E4.07265
G1 X98.473 Y125.996 E4.10087
G1 X98.137 Y125.542 E4.12905
G1 X97.867 Y125.045 E4.15727
G1 X97.67 Y124.515 E4.18548
G1 X97.55 Y123.963 E4.21366
G1 X97.51 Y123.499 E4.23689
G1 X97.501 Y123.166 E4.25351
G1 X97.5 Y96.4 E5.58888
G1 X97.51 Y95.698 E5.6239
G1 X97.558 Y95.135 E5.65209
G1 X97.685 Y94.584 E5.6803
G1 X97.889 Y94.056 E5.70854
G1 X98.164 Y93.563 E5.73671
G1 X98.577 Y93.035 E5.77015
G1 X98.817 Y92.78 E5.78762
G0 F7500 X99.101 Y93.062
G1 F1500 X100.513 Y91.646 E5.88738
G1 X100.999 Y91.175 E5.92115
G1 X101.41 Y90.831 E5.94789
G1 X101.869 Y90.553 E5.97466
G1 X102.363 Y90.345 E6.0014
G1 X102.883 Y90.214 E6.02816
G1 X103.439 Y90.161 E6.05602
G1 X104.062 Y90.15 E6.08711
G1 X115.844 Y90.15 E6.67491
G1 X116.545 Y90.16 E6.70989
G1 X117.08 Y90.208 E6.73669
G1 X117.601 Y90.334 E6.76343
G1 X118.097 Y90.537 E6.79017
G1 X118.558 Y90.811 E6.81692
G1 X118.934 Y91.113 E6.84098
G1 X119.189 Y91.352 E6.85842
G1 X120.607 Y92.766 E6.95833
G1 X121.078 Y93.253 E6.99213
G1 X121.421 Y93.665 E7.01887
G1 X121.699 Y94.124 E7.04565
G1 X121.906 Y94.619 E7.07241
G1 X122.037 Y95.139 E7.09917
G1 X122.089 Y95.691 E7.12683
G1 X122.1 Y96.313 E7.15786
G1 X122.1 Y122.715 E8.47507
G1 X122.09 Y123.441 E8.51129
G1 X122.042 Y123.975 E8.53804
G1 X121.916 Y124.496 E8.56478
G1 X121.714 Y124.993 E8.59155
G1 X121.44 Y125.454 E8.6183
G1 X121.101 Y125.869 E8.64504
G1 X120.704 Y126.23 E8.67181
G1 X120.258 Y126.527 E8.69854
G1 X119.772 Y126.755 E8.72532
G1 X119.258 Y126.908 E8.75208
G1 X118.589 Y126.99 E8.7857
G1 X118.263 Y126.999 E8.80197
G1 X117.13 Y127.001 E8.8585
G1 X116.369 Y126.989 E8.89647
G1 X115.786 Y126.964 E8.92558
G1 X114.101 Y126.868 E9.00978
G1 X111.342 Y126.791 E9.14749
G1 X108.648 Y126.791 E9.28189
G1 X105.876 Y126.87 E9.42024
G1 X103.697 Y126.985 E9.5291
G1 X103.17 Y127 E9.55541
G1 X102.161 Y127 E9.60575
G1 X101.463 Y126.991 E9.64057
G1 X100.928 Y126.944 E9.66737
G1 X100.407 Y126.818 E9.69411
G1 X99.91 Y126.616 E9.72087
G1 X99.449 Y126.343 E9.7476
G1 X99.033 Y126.004 E9.77438
G1 X98.672 Y125.608 E9.80111
G1 X98.374 Y125.162 E9.82787
G1 X98.146 Y124.676 E9.85465
G1 X97.993 Y124.162 E9.88141
G1 X97.91 Y123.488 E9.91529
G1 X97.901 Y123.155 E9.93191
G1 X97.9 Y96.406 E11.26642
G1 X97.91 Y95.704 E11.30145
G1 X97.958 Y95.17 E11.3282
G1 X98.084 Y94.648 E11.35499
G1 X98.287 Y94.152 E11.38172
G1 X98.561 Y93.691 E11.40848
G1 X98.871 Y93.307 E11.4331
G1 X99.101 Y93.062 E11.44987
G0 F7500 X99.384 Y93.344
G1 F1500 X100.791 Y91.933 E11.54928
G1 X101.277 Y91.462 E11.58304
G1 X101.667 Y91.14 E11.60828
G1 X102.102 Y90.883 E11.63348
G1 X102.573 Y90.698 E11.65873
G1 X103.067 Y90.59 E11.68396
G1 X103.447 Y90.561 E11.70297
G1 X104.062 Y90.55 E11.73366
G1 X115.839 Y90.55 E12.32121
G1 X116.54 Y90.56 E12.35619
G1 X117.043 Y90.607 E12.38139
G1 X117.533 Y90.733 E12.40664
G1 X117.996 Y90.935 E12.43184
G1 X118.423 Y91.207 E12.4571
G1 X118.663 Y91.407 E12.47268
G1 X118.906 Y91.635 E12.48931
G1 X120.319 Y93.044 E12.58886
G1 X120.79 Y93.531 E12.62266
G1 X121.112 Y93.921 E12.64789
G1 X121.368 Y94.357 E12.67312
G1 X121.552 Y94.828 E12.69835
G1 X121.66 Y95.322 E12.72357
G1 X121.689 Y95.699 E12.74244
G1 X121.7 Y96.313 E12.77307
G1 X121.7 Y122.709 E14.08998
G1 X121.69 Y123.435 E14.1262
G1 X121.643 Y123.938 E14.1514
G1 X121.517 Y124.428 E14.17665
G1 X121.316 Y124.892 E14.20187
G1 X121.044 Y125.318 E14.22709
G1 X120.709 Y125.697 E14.25233
G1 X120.318 Y126.017 E14.27753
G1 X119.882 Y126.273 E14.30276
G1 X119.411 Y126.456 E14.32797
G1 X118.916 Y126.562 E14.35322
G1 X118.578 Y126.59 E14.37014
G1 X118.252 Y126.599 E14.38641
G1 X117.135 Y126.601 E14.44214
G1 X116.475 Y126.592 E14.47507
G1 X115.809 Y126.565 E14.50833
G1 X114.1 Y126.468 E14.59373
G1 X111.354 Y126.391 E14.73078
G1 X108.637 Y126.391 E14.86633
G1 X105.885 Y126.47 E15.00368
G1 X103.603 Y126.589 E15.11769
G1 X103.265 Y126.599 E15.13456
G1 X102.166 Y126.6 E15.18939
G1 X101.468 Y126.591 E15.22421
G1 X100.964 Y126.544 E15.24947
G1 X100.474 Y126.419 E15.2747
G1 X100.01 Y126.218 E15.29992
G1 X99.584 Y125.947 E15.32511
G1 X99.205 Y125.612 E15.35035
G1 X98.884 Y125.221 E15.37559
G1 X98.629 Y124.785 E15.40079
G1 X98.445 Y124.314 E15.42602
G1 X98.338 Y123.82 E15.45123
G1 X98.31 Y123.477 E15.4684
G1 X98.301 Y123.144 E15.48502
G1 X98.3 Y96.411 E16.81874
G1 X98.31 Y95.709 E16.85376
G1 X98.357 Y95.206 E16.87897
G1 X98.483 Y94.716 E16.90421
G1 X98.685 Y94.253 E16.92941
G1 X98.956 Y93.826 E16.95464
G1 X99.164 Y93.579 E16.97075
G1 X99.384 Y93.344 E16.98681
G1 F2400 E13.98681
;MESH:Left Leg.obj
G0 F7500 X101.152 Y95.158
G0 X102.1 Y122.8
;TYPE:WALL-INNER
G1 F2400 E16.98681
G1 F1500 X102.9 Y122.8 E17.02672
G1 X102.9 Y96.578 E18.33494
G1 X102.945 Y96.348 E18.34664
G1 X103.022 Y96.206 E18.3547
G1 X103.903 Y95.325 E18.41686
G1 X104.098 Y95.195 E18.42855
G1 X104.251 Y95.15 E18.4365
G1 X115.672 Y95.15 E19.0063
G1 X115.902 Y95.194 E19.01798
G1 X116.097 Y95.325 E19.0297
G1 X116.925 Y96.153 E19.08812
G1 X117.055 Y96.348 E19.09982
G1 X117.1 Y96.578 E19.11151
G1 X117.1 Y122.8 E20.41973
G1 X117.9 Y122.8 E20.45964
G1 X117.9 Y96.181 E21.78767
G1 X117.9 Y96 E21.7967
G1 X116.25 Y94.351 E21.91308
G1 X103.75 Y94.35 E22.53671
G1 X102.1 Y96 E22.65312
G1 X102.1 Y122.8 E23.99018
G0 F7500 X101.7 Y123.2
;TYPE:WALL-OUTER
G1 F1500 X103.3 Y123.2 E24.07
G1 X103.3 Y96.578 E25.39818
G1 X103.336 Y96.462 E25.40424
G1 X104.186 Y95.608 E25.46435
G1 X104.293 Y95.552 E25.47038
G1 X115.756 Y95.55 E26.04227
G1 X116.7 Y96.494 E26.10888
G1 X116.7 Y123.2 E27.44124
G1 X118.3 Y123.2 E27.52107
G1 X118.3 Y96.181 E28.86905
G1 X118.3 Y95.834 E28.88636
G1 X116.416 Y93.951 E29.01925
G1 X103.584 Y93.95 E29.65945
G1 X101.7 Y95.834 E29.79237
G1 X101.7 Y123.2 E31.15767
G0 F7500 X101.9 Y123.2
G0 X102.5 Y122.4
;TYPE:SKIN
G1 F1244.8 X102.502 Y96.535 E32.71261
G1 F1151.6 X102.539 Y96.183 E32.73561
G1 X102.7 Y95.964 E32.75327
G1 F1244.8 X103.655 Y95.012 E32.83434
G1 F1158.3 X103.932 Y94.788 E32.85736
G1 F1153.8 X104.19 Y94.751 E32.87426
G1 F1244.8 X115.667 Y94.75 E33.56423
G1 F1158.3 X116.068 Y94.79 E33.59027
G1 F1156.1 X116.351 Y95.014 E33.61363
G1 F1247.4 X117.239 Y95.906 E33.68914
G1 F1156.1 X117.461 Y96.183 E33.71212
G1 F1151.6 X117.498 Y96.536 E33.73518
G1 F1244.8 X117.5 Y122.4 E35.29007
G1 F2400 E32.29007
;MESH:NONMESH
G0 F300 X117.5 Y122.4 Z0.45
G0 F7500 X117.5 Y122.7
G0 X116.938 Y122.706
G0 X116.936 Y96.397
G0 X115.853 Y95.314
G0 X104.147 Y95.314
G0 X103.064 Y96.397
G0 X103.06 Y122.887
G0 X102.1 Y122.9
G1 F2400 E35.29007
G0 F7500 X102.1 Y123.025
;TIME_ELAPSED:35.681666
;LAYER:1
M106 S85
;TYPE:WALL-INNER
;MESH:Left Leg.obj
G1 F2760 X102.9 Y123.025 E35.31002
G1 X102.9 Y96.578 E35.96975
G1 X102.945 Y96.348 E35.97559
G1 X103.022 Y96.206 E35.97962
G1 X103.903 Y95.325 E36.0107
G1 X104.098 Y95.195 E36.01655
G1 X104.251 Y95.15 E36.02053
G1 X115.672 Y95.15 E36.30542
G1 X115.902 Y95.194 E36.31127
G1 X116.097 Y95.325 E36.31713
G1 X116.925 Y96.153 E36.34634
G1 X117.055 Y96.348 E36.35218
G1 X117.1 Y96.578 E36.35803
G1 X117.1 Y123.025 E37.01775
G1 X117.9 Y123.025 E37.03771
G1 X117.9 Y96.181 E37.70733
G1 X117.9 Y96 E37.71185
G1 X116.25 Y94.351 E37.77004
G1 X103.75 Y94.35 E38.08185
G1 X102.1 Y96 E38.14006
G1 X102.1 Y123.025 E38.8142
G0 F8250 X101.7 Y123.425
;TYPE:WALL-OUTER
G1 F1770 X103.3 Y123.425 E38.85411
G1 X103.3 Y96.578 E39.52382
G1 X103.336 Y96.462 E39.52685
G1 X104.186 Y95.608 E39.5569
G1 X104.293 Y95.552 E39.55992
G1 X115.756 Y95.55 E39.84586
G1 X116.7 Y96.494 E39.87916
G1 X116.7 Y123.425 E40.55096
G1 X118.3 Y123.425 E40.59087
G1 X118.3 Y96.181 E41.27048
G1 X118.3 Y95.834 E41.27913
G1 X116.416 Y93.951 E41.34558
G1 X103.584 Y93.95 E41.66567
G1 X101.7 Y95.834 E41.73214
G1 X101.7 Y123.425 E42.4204
G0 F8250 X101.9 Y123.425
G0 X102.5 Y122.625
;TYPE:SKIN
G1 F1244.8 X102.502 Y96.535 E43.20463
G1 F1151.6 X102.539 Y96.183 E43.21613
G1 X102.7 Y95.964 E43.22496
G1 F1244.8 X103.655 Y95.012 E43.2655
G1 F1158.3 X103.932 Y94.788 E43.277
G1 F1153.8 X104.19 Y94.751 E43.28546
G1 F1244.8 X115.667 Y94.75 E43.63044
G1 F1158.3 X116.068 Y94.79 E43.64346
G1 F1156.1 X116.351 Y95.014 E43.65514
G1 F1247.4 X117.239 Y95.906 E43.6929
G1 F1156.1 X117.461 Y96.183 E43.70439
G1 F1151.6 X117.498 Y96.536 E43.71592
G1 F1244.8 X117.5 Y122.625 E44.50012
G1 F2400 E41.50012
;MESH:NONMESH
G0 F300 X117.5 Y122.625 Z0.6
G0 F8250 X117.5 Y122.925
G0 X116.938 Y122.931
G0 X116.936 Y96.397
G0 X115.853 Y95.314
G0 X104.147 Y95.314
G0 X103.064 Y96.397
G0 X103.06 Y123.112
G0 X102.1 Y123.125
G1 F2400 E44.50012
G0 F8250 X102.1 Y123.175
;TIME_ELAPSED:49.518986
;LAYER:2
M106 S170
;TYPE:WALL-INNER
;MESH:Left Leg.obj
G1 F4020 X102.9 Y123.175 E44.52008
G1 X102.9 Y96.578 E45.18354
G1 X102.945 Y96.348 E45.18939
G1 X103.022 Y96.206 E45.19342
G1 X103.903 Y95.325 E45.2245
G1 X104.098 Y95.195 E45.23035
G1 X104.251 Y95.15 E45.23432
G1 X115.672 Y95.15 E45.51922
G1 X115.902 Y95.194 E45.52506
G1 X116.097 Y95.325 E45.53092
G1 X116.925 Y96.153 E45.56013
G1 X117.055 Y96.348 E45.56598
G1 X117.1 Y96.578 E45.57183
G1 X117.1 Y123.175 E46.23529
G1 X117.9 Y123.175 E46.25525
G1 X117.9 Y96.181 E46.92861
G1 X117.9 Y96 E46.93313
G1 X116.25 Y94.351 E46.99132
G1 X103.75 Y94.35 E47.30313
G1 X102.1 Y96 E47.36134
G1 X102.1 Y123.175 E48.03923
G0 F9000 X101.7 Y123.575
;TYPE:WALL-OUTER
G1 F2040 X103.3 Y123.575 E48.07914
G1 X103.3 Y96.578 E48.75258
G1 X103.336 Y96.462 E48.75561
G1 X104.186 Y95.608 E48.78567
G1 X104.293 Y95.552 E48.78868
G1 X115.756 Y95.55 E49.07463
G1 X116.7 Y96.494 E49.10793
G1 X116.7 Y123.575 E49.78347
G1 X118.3 Y123.575 E49.82338
G1 X118.3 Y96.181 E50.50672
G1 X118.3 Y95.834 E50.51538
G1 X116.416 Y93.951 E50.58183
G1 X103.584 Y93.95 E50.90192
G1 X101.7 Y95.834 E50.96838
G1 X101.7 Y123.575 E51.66039
G0 F9000 X101.9 Y123.575
G0 X102.5 Y122.775
;TYPE:SKIN
G1 F1244.8 X102.502 Y96.535 E52.44913
G1 F1151.6 X102.539 Y96.183 E52.46063
G1 X102.7 Y95.964 E52.46946
G1 F1244.8 X103.655 Y95.012 E52.50999
G1 F1158.3 X103.932 Y94.788 E52.5215
G1 F1153.8 X104.19 Y94.751 E52.52995
G1 F1244.8 X115.667 Y94.75 E52.87494
G1 F1158.3 X116.068 Y94.79 E52.88796
G1 F1156.1 X116.351 Y95.014 E52.89964
G1 F1247.4 X117.239 Y95.906 E52.9374
G1 F1156.1 X117.461 Y96.183 E52.94888
G1 F1151.6 X117.498 Y96.536 E52.96042
G1 F1244.8 X117.5 Y122.775 E53.74913
G1 F2400 E50.74913
;MESH:NONMESH
G0 F300 X117.5 Y122.775 Z0.75
G0 F9000 X117.5 Y123.075
G0 X116.938 Y123.081
G0 X116.936 Y96.397
G0 X115.853 Y95.314
G0 X104.147 Y95.314
G0 X103.064 Y96.397
G0 X103.06 Y123.262
G0 X102.1 Y123.275
G1 F2400 E53.74913
G0 F9000 X102.1 Y123.325
;TIME_ELAPSED:62.159536
;LAYER:3
M106 S255
;TYPE:WALL-INNER
;MESH:Left Leg.obj
G1 F4020 X102.9 Y123.325 E53.76909
G1 X102.9 Y96.578 E54.43629
G1 X102.945 Y96.348 E54.44214
G1 X103.022 Y96.206 E54.44617
G1 X103.903 Y95.325 E54.47725
G1 X104.098 Y95.195 E54.48309
G1 X104.251 Y95.15 E54.48707
G1 X115.672 Y95.15 E54.77197
G1 X115.902 Y95.194 E54.77781
G1 X116.097 Y95.325 E54.78367
G1 X116.925 Y96.153 E54.81288
G1 X117.055 Y96.348 E54.81873
G1 X117.1 Y96.578 E54.82457
G1 X117.1 Y123.325 E55.49178
G1 X117.9 Y123.325 E55.51174
G1 X117.9 Y96.181 E56.18885
G1 X117.9 Y96 E56.19336
G1 X116.25 Y94.351 E56.25155
G1 X103.75 Y94.35 E56.56337
G1 X102.1 Y96 E56.62158
G1 X102.1 Y123.325 E57.3032
G0 F9000 X101.7 Y123.725
;TYPE:WALL-OUTER
G1 F2040 X103.3 Y123.725 E57.34311
G1 X103.3 Y96.578 E58.0203
G1 X103.336 Y96.462 E58.02333
G1 X104.186 Y95.608 E58.05338
G1 X104.293 Y95.552 E58.0564
G1 X115.756 Y95.55 E58.34234
G1 X116.7 Y96.494 E58.37564
G1 X116.7 Y123.725 E59.05492
G1 X118.3 Y123.725 E59.09484
G1 X118.3 Y96.181 E59.78192
G1 X118.3 Y95.834 E59.79058
G1 X116.416 Y93.951 E59.85703
G1 X103.584 Y93.95 E60.17712
G1 X101.7 Y95.834 E60.24358
G1 X101.7 Y123.725 E60.93933
G0 F9000 X101.9 Y123.725
G0 X102.5 Y122.925
;TYPE:SKIN
G1 F1244.8 X102.502 Y96.535 E61.73258
G1 F1151.6 X102.539 Y96.183 E61.74408
G1 X102.7 Y95.964 E61.75291
G1 F1244.8 X103.655 Y95.012 E61.79345
G1 F1158.3 X103.932 Y94.788 E61.80495
G1 F1153.8 X104.19 Y94.751 E61.81341
G1 F1244.8 X115.667 Y94.75 E62.15839
G1 F1158.3 X116.068 Y94.79 E62.17141
G1 F1156.1 X116.351 Y95.014 E62.18309
G1 F1247.4 X117.239 Y95.906 E62.22085
G1 F1156.1 X117.461 Y96.183 E62.23233
G1 F1151.6 X117.498 Y96.536 E62.24387
G1 F1244.8 X117.5 Y122.925 E63.03709
G1 F2400 E60.03709
;MESH:NONMESH
G0 F300 X117.5 Y122.925 Z0.9
G0 F9000 X117.5 Y123.225
G0 X116.939 Y123.231
G0 X116.936 Y96.397
G0 X115.853 Y95.314
G0 X104.147 Y95.314
G0 X103.064 Y96.397
G0 X103.06 Y123.412
G0 X102.1 Y123.425
G1 F2400 E63.03709
G0 F9000 X102.1 Y123.475
;TIME_ELAPSED:74.843671
;LAYER:4
;TYPE:WALL-INNER
;MESH:Left Leg.obj
G1 F4020 X102.9 Y123.475 E63.05705
G1 X102.9 Y96.578 E63.72799
G1 X102.945 Y96.348 E63.73384
G1 X103.022 Y96.206 E63.73787
G1 X103.903 Y95.325 E63.76895
G1 X104.098 Y95.195 E63.7748
G1 X104.251 Y95.15 E63.77877
G1 X115.672 Y95.15 E64.06367
G1 X115.902 Y95.194 E64.06951
G1 X116.097 Y95.325 E64.07537
G1 X116.925 Y96.153 E64.10458
G1 X117.055 Y96.348 E64.11043
G1 X117.1 Y96.578 E64.11628
G1 X117.1 Y123.475 E64.78722
G1 X117.9 Y123.475 E64.80718
G1 X117.9 Y96.181 E65.48803
G1 X117.9 Y96 E65.49255
G1 X116.25 Y94.351 E65.55074
G1 X103.75 Y94.35 E65.86255
G1 X102.1 Y96 E65.92076
G1 X102.1 Y123.475 E66.60613
G0 F9000 X101.7 Y123.875
;TYPE:WALL-OUTER
G1 F2040 X103.3 Y123.875 E66.64604
G1 X103.3 Y96.578 E67.32696
G1 X103.336 Y96.462 E67.32999
G1 X104.186 Y95.608 E67.36005
G1 X104.293 Y95.552 E67.36306
G1 X115.756 Y95.55 E67.64901
G1 X116.7 Y96.494 E67.68231
G1 X116.7 Y123.875 E68.36533
G1 X118.3 Y123.875 E68.40525
G1 X118.3 Y96.181 E69.09608
G1 X118.3 Y95.834 E69.10473
G1 X116.416 Y93.951 E69.17118
G1 X103.584 Y93.95 E69.49127
G1 X101.7 Y95.834 E69.55774
G1 X101.7 Y123.875 E70.25722
G0 F9000 X101.9 Y123.875
G0 X102.5 Y123.075
;TYPE:SKIN
G1 F1244.8 X102.502 Y96.535 E71.05498
G1 F1151.6 X102.539 Y96.183 E71.06648
G1 X102.7 Y95.964 E71.07531
G1 F1244.8 X103.655 Y95.012 E71.11585
G1 F1158.3 X103.932 Y94.788 E71.12736
G1 F1153.8 X104.19 Y94.751 E71.13581
G1 F1244.8 X115.667 Y94.75 E71.48079
G1 F1158.3 X116.068 Y94.79 E71.49381
G1 F1156.1 X116.351 Y95.014 E71.50549
G1 F1247.4 X117.239 Y95.906 E71.54325
G1 F1156.1 X117.461 Y96.183 E71.55474
G1 F1151.6 X117.498 Y96.536 E71.56627
G1 F1244.8 X117.5 Y123.075 E72.364
G1 F2400 E69.364
