;FLAVOR:Marlin
;TIME:4442
;Filament used: 2.42283m
;Layer height: 0.15
;MINX:95.55
;MINY:85.3
;MINZ:0.3
;MAXX:124.451
;MAXY:132.908
;MAXZ:42
;Generated with Cura_SteamEngine 5.2.1
M140 S60
M105
M190 S60
M104 S210
M105
M109 S210
M82 ;absolute extrusion mode
G28 ;Home
G1 Z15.0 F2000 ;Move the platform
G92 E0
G92 E0
G1 F2400 E-3
;LAYER_COUNT:279
;LAYER:0
M107
M204 S1000
G0 F7500 X97.43 Y88.938 Z0.3
;TYPE:SKIRT
G1 F2400 E0
G1 F1500 X97.835 Y88.501 E0.02973
G1 X98.751 Y87.585 E0.09435
G1 X99.337 Y87.055 E0.13377
G1 X99.973 Y86.588 E0.17314
G1 X100.653 Y86.187 E0.21252
G1 X101.371 Y85.857 E0.25195
G1 X102.118 Y85.602 E0.29133
G1 X102.887 Y85.423 E0.33072
G1 X103.671 Y85.323 E0.37015
G1 X104.266 Y85.3 E0.39986
G1 X115.734 Y85.3 E0.972
G1 X116.523 Y85.34 E1.01141
G1 X117.303 Y85.459 E1.05078
G1 X118.068 Y85.657 E1.0902
G1 X118.808 Y85.931 E1.12957
G1 X119.517 Y86.279 E1.16897
G1 X120.188 Y86.697 E1.20841
G1 X120.812 Y87.18 E1.24778
G1 X121.243 Y87.579 E1.27708
G1 X122.16 Y88.494 E1.34171
G1 X122.69 Y89.079 E1.38109
G1 X123.159 Y89.715 E1.42052
G1 X123.56 Y90.395 E1.4599
G1 X123.891 Y91.112 E1.4993
G1 X124.147 Y91.859 E1.5387
G1 X124.327 Y92.628 E1.5781
G1 X124.428 Y93.411 E1.61749
G1 X124.451 Y94.015 E1.64764
G1 X124.451 Y123.485 E3.11791
G1 X124.411 Y124.274 E3.15732
G1 X124.292 Y125.054 E3.19669
G1 X124.094 Y125.819 E3.23611
G1 X123.82 Y126.559 E3.27548
G1 X123.472 Y127.268 E3.31488
G1 X123.054 Y127.939 E3.35432
G1 X122.571 Y128.563 E3.39369
G1 X122.165 Y129.002 E3.42352
G1 X120.541 Y130.625 E3.53807
G1 X119.955 Y131.154 E3.57745
G1 X119.318 Y131.622 E3.61689
G1 X118.637 Y132.022 E3.65629
G1 X117.92 Y132.352 E3.69567
G1 X117.173 Y132.607 E3.73505
G1 X116.403 Y132.786 E3.77449
G1 X115.62 Y132.885 E3.81386
G1 X115.026 Y132.908 E3.84352
G1 X104.973 Y132.907 E4.34507
G1 X104.185 Y132.867 E4.38443
G1 X103.404 Y132.747 E4.42385
G1 X102.639 Y132.549 E4.46328
G1 X101.899 Y132.275 E4.50264
G1 X101.19 Y131.928 E4.54203
G1 X100.52 Y131.51 E4.58142
G1 X99.895 Y131.027 E4.62083
G1 X99.46 Y130.624 E4.65042
G1 X97.836 Y129.001 E4.76496
G1 X97.307 Y128.415 E4.80435
G1 X96.839 Y127.779 E4.84374
G1 X96.438 Y127.099 E4.88313
G1 X96.108 Y126.381 E4.92255
G1 X95.852 Y125.634 E4.96195
G1 X95.673 Y124.865 E5.00134
G1 X95.573 Y124.082 E5.04072
G1 X95.55 Y123.484 E5.07058
G1 X95.55 Y94.016 E6.54074
G1 X95.59 Y93.227 E6.58016
G1 X95.709 Y92.447 E6.61952
G1 X95.907 Y91.682 E6.65894
G1 X96.181 Y90.942 E6.69831
G1 X96.529 Y90.233 E6.73771
G1 X96.947 Y89.562 E6.77716
G1 X97.43 Y88.938 E6.81652
G0 F7500 X97.825 Y89.093
G1 F1500 X98.117 Y88.783 E6.83777
G1 X99.033 Y87.867 E6.9024
G1 X99.605 Y87.353 E6.94077
G1 X100.227 Y86.9 E6.97915
G1 X100.892 Y86.514 E7.01752
G1 X101.594 Y86.199 E7.0559
G1 X102.325 Y85.959 E7.09429
G1 X103.076 Y85.796 E7.13263
G1 X103.841 Y85.712 E7.17102
G1 X104.266 Y85.7 E7.19223
G1 X115.734 Y85.7 E7.76438
G1 X116.502 Y85.74 E7.80274
G1 X117.262 Y85.859 E7.84112
G1 X118.005 Y86.057 E7.87948
G1 X118.724 Y86.331 E7.91787
G1 X119.41 Y86.678 E7.95623
G1 X120.057 Y87.094 E7.9946
G1 X120.657 Y87.575 E8.03297
G1 X120.961 Y87.862 E8.05382
G1 X121.878 Y88.777 E8.11845
G1 X122.393 Y89.348 E8.15682
G1 X122.847 Y89.969 E8.19519
G1 X123.233 Y90.634 E8.23355
G1 X123.549 Y91.335 E8.27192
G1 X123.79 Y92.066 E8.31032
G1 X123.953 Y92.817 E8.34866
G1 X124.038 Y93.582 E8.38706
G1 X124.051 Y94.015 E8.40867
G1 X124.051 Y123.485 E9.87893
G1 X124.011 Y124.253 E9.9173
G1 X123.892 Y125.013 E9.95568
G1 X123.694 Y125.756 E9.99404
G1 X123.42 Y126.475 E10.03243
G1 X123.073 Y127.161 E10.07078
G1 X122.657 Y127.808 E10.10916
G1 X122.176 Y128.408 E10.14753
G1 X121.882 Y128.719 E10.16888
G1 X120.258 Y130.342 E10.28342
G1 X119.686 Y130.857 E10.32182
G1 X119.065 Y131.309 E10.36014
G1 X118.399 Y131.695 E10.39855
G1 X117.697 Y132.01 E10.43693
G1 X116.966 Y132.249 E10.4753
G1 X116.214 Y132.412 E10.51369
G1 X115.45 Y132.496 E10.55204
G1 X115.026 Y132.508 E10.5732
G1 X104.973 Y132.507 E11.07475
G1 X104.205 Y132.467 E11.11311
G1 X103.445 Y132.347 E11.1515
G1 X102.702 Y132.15 E11.18985
G1 X101.983 Y131.876 E11.22824
G1 X101.297 Y131.529 E11.26659
G1 X100.65 Y131.112 E11.30499
G1 X100.05 Y130.631 E11.34336
G1 X99.743 Y130.341 E11.36443
G1 X98.119 Y128.718 E11.47897
G1 X97.604 Y128.147 E11.51734
G1 X97.151 Y127.525 E11.55573
G1 X96.765 Y126.86 E11.59409
G1 X96.45 Y126.158 E11.63247
G1 X96.21 Y125.428 E11.67081
G1 X96.047 Y124.676 E11.7092
G1 X95.962 Y123.911 E11.7476
G1 X95.95 Y123.484 E11.76891
G1 X95.95 Y94.016 E13.23908
G1 X95.99 Y93.248 E13.27745
G1 X96.109 Y92.488 E13.31582
G1 X96.307 Y91.745 E13.35419
G1 X96.581 Y91.026 E13.39257
G1 X96.928 Y90.34 E13.43093
G1 X97.344 Y89.693 E13.4693
G1 X97.825 Y89.093 E13.50767
G0 F7500 X98.4 Y89.066
G1 F1500 X99.316 Y88.15 E13.5723
G1 X99.873 Y87.65 E13.60964
G1 X100.479 Y87.213 E13.64691
G1 X101.129 Y86.842 E13.68425
G1 X101.815 Y86.543 E13.72159
G1 X102.529 Y86.319 E13.75892
G1 X103.262 Y86.172 E13.79622
G1 X104.266 Y86.1 E13.84644
G1 X115.734 Y86.1 E14.41858
G1 X116.481 Y86.14 E14.4559
G1 X117.219 Y86.259 E14.49319
G1 X117.941 Y86.457 E14.53055
G1 X118.637 Y86.73 E14.56784
G1 X119.3 Y87.077 E14.60518
G1 X119.923 Y87.492 E14.64252
G1 X120.678 Y88.145 E14.69233
G1 X121.595 Y89.06 E14.75695
G1 X122.096 Y89.616 E14.79429
G1 X122.534 Y90.222 E14.8316
G1 X122.905 Y90.871 E14.86889
G1 X123.205 Y91.557 E14.90625
G1 X123.43 Y92.27 E14.94355
G1 X123.578 Y93.004 E14.9809
G1 X123.651 Y94.015 E15.03147
G1 X123.651 Y123.485 E16.50174
G1 X123.611 Y124.232 E16.53906
G1 X123.492 Y124.97 E16.57635
G1 X123.294 Y125.692 E16.61371
G1 X123.021 Y126.388 E16.651
G1 X122.674 Y127.051 E16.68834
G1 X122.259 Y127.674 E16.72568
G1 X121.599 Y128.436 E16.77598
G1 X119.975 Y130.059 E16.89053
G1 X119.419 Y130.559 E16.92783
G1 X118.812 Y130.997 E16.96517
G1 X118.162 Y131.367 E17.00249
G1 X117.476 Y131.666 E17.03982
G1 X116.762 Y131.89 E17.07716
G1 X116.029 Y132.036 E17.11444
G1 X115.026 Y132.108 E17.16461
G1 X104.973 Y132.107 E17.66616
G1 X104.226 Y132.067 E17.70348
G1 X103.488 Y131.947 E17.74078
G1 X102.766 Y131.75 E17.77812
G1 X102.07 Y131.476 E17.81544
G1 X101.407 Y131.13 E17.85275
G1 X100.785 Y130.715 E17.89005
G1 X100.026 Y130.058 E17.94014
G1 X98.402 Y128.435 E18.05468
G1 X97.902 Y127.879 E18.09199
G1 X97.464 Y127.272 E18.12933
G1 X97.093 Y126.623 E18.16663
G1 X96.794 Y125.937 E18.20396
G1 X96.57 Y125.223 E18.2413
G1 X96.423 Y124.49 E18.27859
G1 X96.35 Y123.484 E18.32892
G1 X96.35 Y94.016 E19.79908
G1 X96.39 Y93.269 E19.8364
G1 X96.509 Y92.531 E19.8737
G1 X96.707 Y91.809 E19.91105
G1 X96.98 Y91.113 E19.94835
G1 X97.327 Y90.45 E19.98568
G1 X97.742 Y89.827 E20.02303
G1 X98.4 Y89.066 E20.07322
G0 F7500 X98.683 Y89.349
G1 F1500 X99.599 Y88.433 E20.13785
G1 X100.14 Y87.949 E20.17406
G1 X100.731 Y87.526 E20.21032
G1 X101.365 Y87.172 E20.24655
G1 X102.034 Y86.889 E20.28279
G1 X102.73 Y86.681 E20.31903
G1 X103.445 Y86.551 E20.35528
G1 X104.266 Y86.5 E20.39632
G1 X115.734 Y86.5 E20.96846
G1 X116.459 Y86.54 E21.00469
G1 X117.176 Y86.659 E21.04095
G1 X117.875 Y86.857 E21.0772
G1 X118.548 Y87.13 E21.11343
G1 X119.187 Y87.475 E21.14966
G1 X119.784 Y87.889 E21.1859
G1 X120.396 Y88.428 E21.22659
G1 X121.313 Y89.343 E21.29122
G1 X121.798 Y89.884 E21.32747
G1 X122.221 Y90.474 E21.36369
G1 X122.576 Y91.108 E21.39994
G1 X122.86 Y91.776 E21.43615
G1 X123.068 Y92.472 E21.47239
G1 X123.199 Y93.187 E21.50866
G1 X123.251 Y94.015 E21.55005
G1 X123.251 Y123.485 E23.02031
G1 X123.211 Y124.21 E23.05654
G1 X123.092 Y124.927 E23.0928
G1 X122.894 Y125.626 E23.12904
G1 X122.621 Y126.299 E23.16528
G1 X122.276 Y126.938 E23.20151
G1 X121.862 Y127.535 E23.23775
G1 X121.316 Y128.153 E23.27889
G1 X119.692 Y129.776 E23.39344
G1 X119.151 Y130.261 E23.42969
G1 X118.56 Y130.683 E23.46592
G1 X117.926 Y131.037 E23.50215
G1 X117.257 Y131.32 E23.53839
G1 X116.561 Y131.527 E23.57461
G1 X115.846 Y131.657 E23.61087
G1 X115.026 Y131.708 E23.65186
G1 X104.973 Y131.707 E24.1534
G1 X104.248 Y131.667 E24.18963
G1 X103.532 Y131.547 E24.22585
G1 X102.833 Y131.35 E24.26208
G1 X102.16 Y131.077 E24.29831
G1 X101.521 Y130.731 E24.33457
G1 X100.923 Y130.318 E24.37083
G1 X100.309 Y129.775 E24.41172
G1 X98.685 Y128.152 E24.52627
G1 X98.2 Y127.611 E24.56251
G1 X97.777 Y127.02 E24.59877
G1 X97.423 Y126.387 E24.63496
G1 X97.139 Y125.718 E24.67122
G1 X96.932 Y125.022 E24.70744
G1 X96.802 Y124.307 E24.7437
G1 X96.75 Y123.484 E24.78484
G1 X96.75 Y94.016 E26.25501
G1 X96.79 Y93.291 E26.29123
G1 X96.909 Y92.574 E26.32749
G1 X97.107 Y91.875 E26.36374
G1 X97.38 Y91.202 E26.39997
G1 X97.725 Y90.563 E26.4362
G1 X98.139 Y89.966 E26.47245
G1 X98.683 Y89.349 E26.51348
G0 F7500 X98.966 Y89.632
G1 F1500 X99.882 Y88.716 E26.57811
G1 X100.407 Y88.247 E26.61323
G1 X100.982 Y87.841 E26.64835
G1 X101.6 Y87.503 E26.68349
G1 X102.251 Y87.236 E26.7186
G1 X102.929 Y87.046 E26.75373
G1 X103.624 Y86.933 E26.78886
G1 X104.266 Y86.9 E26.82093
G1 X115.734 Y86.9 E27.39307
G1 X116.437 Y86.94 E27.4282
G1 X117.131 Y87.059 E27.46333
G1 X117.806 Y87.257 E27.49842
G1 X118.455 Y87.529 E27.53353
G1 X119.069 Y87.874 E27.56867
G1 X119.64 Y88.285 E27.60377
G1 X120.113 Y88.711 E27.63552
G1 X121.03 Y89.626 E27.70015
G1 X121.5 Y90.151 E27.73531
G1 X121.906 Y90.725 E27.77038
G1 X122.245 Y91.342 E27.80551
G1 X122.512 Y91.994 E27.84066
G1 X122.704 Y92.671 E27.87576
G1 X122.817 Y93.366 E27.91089
G1 X122.851 Y94.015 E27.94332
G1 X122.851 Y123.485 E29.41358
G1 X122.811 Y124.188 E29.44871
G1 X122.692 Y124.882 E29.48384
G1 X122.494 Y125.557 E29.51893
G1 X122.222 Y126.206 E29.55404
G1 X121.877 Y126.82 E29.58918
G1 X121.466 Y127.391 E29.62428
G1 X121.034 Y127.87 E29.65646
G1 X119.41 Y129.493 E29.77101
G1 X118.884 Y129.962 E29.80616
G1 X118.309 Y130.368 E29.84128
G1 X117.692 Y130.706 E29.87638
G1 X117.04 Y130.972 E29.91151
G1 X116.362 Y131.163 E29.94665
G1 X115.667 Y131.275 E29.98177
G1 X115.026 Y131.308 E30.0138
G1 X104.973 Y131.307 E30.51534
G1 X104.271 Y131.267 E30.55042
G1 X103.577 Y131.148 E30.58555
G1 X102.901 Y130.95 E30.62069
G1 X102.252 Y130.677 E30.65582
G1 X101.638 Y130.333 E30.69093
G1 X101.067 Y129.921 E30.72606
G1 X100.591 Y129.492 E30.75803
G1 X98.967 Y127.869 E30.87258
G1 X98.498 Y127.344 E30.9077
G1 X98.092 Y126.769 E30.94282
G1 X97.754 Y126.152 E30.97792
G1 X97.487 Y125.501 E31.01302
G1 X97.296 Y124.823 E31.04816
G1 X97.184 Y124.128 E31.08328
G1 X97.15 Y123.484 E31.11546
G1 X97.15 Y94.016 E32.58562
G1 X97.19 Y93.313 E32.62075
G1 X97.309 Y92.619 E32.65588
G1 X97.507 Y91.944 E32.69097
G1 X97.779 Y91.295 E32.72608
G1 X98.124 Y90.681 E32.76122
G1 X98.535 Y90.11 E32.79632
G1 X98.966 Y89.632 E32.82843
G0 F7500 X99.249 Y89.915
G1 F1500 X100.165 Y88.999 E32.89306
G1 X100.674 Y88.546 E32.92705
G1 X101.232 Y88.157 E32.96099
G1 X101.832 Y87.835 E32.99496
G1 X102.466 Y87.586 E33.02894
G1 X103.125 Y87.413 E33.06293
G1 X103.799 Y87.319 E33.09689
G1 X104.266 Y87.3 E33.1202
G1 X115.734 Y87.3 E33.69235
G1 X116.414 Y87.34 E33.72633
G1 X117.084 Y87.459 E33.76028
G1 X117.736 Y87.656 E33.79426
G1 X118.36 Y87.928 E33.82822
G1 X118.948 Y88.272 E33.86221
G1 X119.492 Y88.682 E33.89619
G1 X119.831 Y88.994 E33.91918
G1 X120.748 Y89.909 E33.98381
G1 X121.201 Y90.418 E34.0178
G1 X121.591 Y90.976 E34.05177
G1 X121.913 Y91.576 E34.08574
G1 X122.163 Y92.209 E34.11969
G1 X122.336 Y92.867 E34.15364
G1 X122.432 Y93.542 E34.18765
G1 X122.451 Y94.015 E34.21127
G1 X122.451 Y123.485 E35.68153
G1 X122.411 Y124.165 E35.71552
G1 X122.292 Y124.835 E35.74947
G1 X122.095 Y125.487 E35.78345
G1 X121.823 Y126.111 E35.81741
G1 X121.479 Y126.699 E35.85139
G1 X121.069 Y127.243 E35.88538
G1 X120.751 Y127.587 E35.90875
G1 X119.127 Y129.21 E36.0233
G1 X118.618 Y129.663 E36.05729
G1 X118.059 Y130.052 E36.09127
G1 X117.459 Y130.373 E36.12522
G1 X116.825 Y130.622 E36.1592
G1 X116.167 Y130.795 E36.19314
G1 X115.492 Y130.889 E36.22714
G1 X115.026 Y130.908 E36.25041
G1 X104.973 Y130.907 E36.75196
G1 X104.294 Y130.867 E36.78589
G1 X103.623 Y130.748 E36.81989
G1 X102.972 Y130.55 E36.85384
G1 X102.348 Y130.278 E36.8878
G1 X101.76 Y129.935 E36.92176
G1 X101.216 Y129.525 E36.95575
G1 X100.874 Y129.209 E36.97898
G1 X99.25 Y127.586 E37.09352
G1 X98.798 Y127.078 E37.12745
G1 X98.408 Y126.519 E37.16145
G1 X98.086 Y125.919 E37.19543
G1 X97.837 Y125.286 E37.22936
G1 X97.664 Y124.627 E37.26335
G1 X97.569 Y123.953 E37.29731
G1 X97.55 Y123.484 E37.32073
G1 X97.55 Y94.016 E38.79089
G1 X97.59 Y93.336 E38.82488
G1 X97.709 Y92.666 E38.85883
G1 X97.906 Y92.014 E38.89281
G1 X98.178 Y91.39 E38.92677
G1 X98.522 Y90.802 E38.96076
G1 X98.932 Y90.258 E38.99474
G1 X99.249 Y89.915 E39.01804
G0 F7500 X99.532 Y90.198
G1 F1500 X100.448 Y89.282 E39.08267
G1 X100.94 Y88.846 E39.11547
G1 X101.481 Y88.474 E39.14822
G1 X102.063 Y88.17 E39.18098
G1 X102.678 Y87.939 E39.21376
G1 X103.317 Y87.784 E39.24656
G1 X104.266 Y87.7 E39.29409
G1 X115.734 Y87.7 E39.86623
G1 X116.39 Y87.74 E39.89902
G1 X117.036 Y87.859 E39.93179
G1 X117.663 Y88.056 E39.96458
G1 X118.261 Y88.328 E39.99736
G1 X118.822 Y88.67 E40.03014
G1 X119.548 Y89.277 E40.07735
G1 X120.465 Y90.192 E40.14198
G1 X120.901 Y90.684 E40.17478
G1 X121.274 Y91.225 E40.20756
G1 X121.579 Y91.807 E40.24034
G1 X121.811 Y92.422 E40.27313
G1 X121.966 Y93.06 E40.30589
G1 X122.051 Y94.015 E40.35372
G1 X122.051 Y123.485 E41.82399
G1 X122.011 Y124.141 E41.85678
G1 X121.892 Y124.787 E41.88955
G1 X121.695 Y125.414 E41.92234
G1 X121.423 Y126.012 E41.95511
G1 X121.081 Y126.573 E41.98789
G1 X120.468 Y127.305 E42.03553
G1 X118.844 Y128.928 E42.15007
G1 X118.352 Y129.363 E42.18284
G1 X117.811 Y129.735 E42.21559
G1 X117.228 Y130.039 E42.2484
G1 X116.613 Y130.27 E42.28117
G1 X115.975 Y130.424 E42.31391
G1 X115.026 Y130.508 E42.36145
G1 X104.973 Y130.507 E42.86299
G1 X104.318 Y130.467 E42.89573
G1 X103.672 Y130.348 E42.9285
G1 X103.045 Y130.151 E42.96129
G1 X102.447 Y129.879 E42.99407
G1 X101.886 Y129.537 E43.02685
G1 X101.157 Y128.927 E43.07427
G1 X99.533 Y127.304 E43.18882
G1 X99.097 Y126.812 E43.22161
G1 X98.725 Y126.271 E43.25437
G1 X98.42 Y125.688 E43.28719
G1 X98.189 Y125.073 E43.31997
G1 X98.034 Y124.435 E43.35273
G1 X97.95 Y123.484 E43.40036
G1 X97.95 Y94.016 E44.87052
G1 X97.99 Y93.36 E44.90331
G1 X98.109 Y92.714 E44.93608
G1 X98.306 Y92.087 E44.96887
G1 X98.578 Y91.489 E45.00165
G1 X98.92 Y90.928 E45.03442
G1 X99.532 Y90.198 E45.08195
G0 F7500 X99.814 Y90.48
G1 F1500 X100.73 Y89.564 E45.14658
G1 X101.205 Y89.147 E45.17811
G1 X101.728 Y88.792 E45.20965
G1 X102.292 Y88.506 E45.2412
G1 X102.887 Y88.294 E45.27271
G1 X103.505 Y88.158 E45.30428
G1 X104.266 Y88.1 E45.34236
G1 X115.734 Y88.1 E45.9145
G1 X116.365 Y88.14 E45.94604
G1 X116.986 Y88.259 E45.97759
G1 X117.586 Y88.456 E46.00909
G1 X118.158 Y88.727 E46.04067
G1 X118.69 Y89.067 E46.07217
G1 X119.266 Y89.561 E46.11003
G1 X120.183 Y90.476 E46.17466
G1 X120.601 Y90.95 E46.20619
G1 X120.956 Y91.472 E46.23768
G1 X121.243 Y92.036 E46.26925
G1 X121.456 Y92.631 E46.30078
G1 X121.592 Y93.248 E46.3323
G1 X121.651 Y94.015 E46.37068
G1 X121.651 Y123.485 E47.84095
G1 X121.611 Y124.116 E47.87249
G1 X121.492 Y124.737 E47.90404
G1 X121.295 Y125.337 E47.93554
G1 X121.024 Y125.909 E47.96712
G1 X120.684 Y126.441 E47.99862
G1 X120.185 Y127.022 E48.03683
G1 X118.561 Y128.645 E48.15138
G1 X118.087 Y129.062 E48.18287
G1 X117.564 Y129.417 E48.21441
G1 X117 Y129.702 E48.24593
G1 X116.404 Y129.915 E48.27751
G1 X115.787 Y130.05 E48.30902
G1 X115.027 Y130.108 E48.34705
G1 X104.974 Y130.107 E48.84859
G1 X104.343 Y130.067 E48.88014
G1 X103.722 Y129.948 E48.91168
G1 X103.121 Y129.751 E48.94324
G1 X102.55 Y129.48 E48.97477
G1 X102.018 Y129.139 E49.0063
G1 X101.44 Y128.644 E49.04426
G1 X99.816 Y127.021 E49.15881
G1 X99.398 Y126.546 E49.19038
G1 X99.043 Y126.023 E49.22191
G1 X98.757 Y125.459 E49.25346
G1 X98.544 Y124.864 E49.28499
G1 X98.409 Y124.247 E49.3165
G1 X98.35 Y123.484 E49.35468
G1 X98.35 Y94.016 E50.82484
G1 X98.39 Y93.385 E50.85639
G1 X98.509 Y92.764 E50.88793
G1 X98.706 Y92.164 E50.91944
G1 X98.977 Y91.592 E50.95102
G1 X99.317 Y91.06 E50.98252
G1 X99.814 Y90.48 E51.02062
G0 F7500 X100.097 Y90.763
G1 F1500 X101.013 Y89.847 E51.08525
G1 X101.469 Y89.448 E51.11548
G1 X101.974 Y89.112 E51.14574
G1 X102.518 Y88.845 E51.17598
G1 X103.093 Y88.652 E51.20624
