;FLAVOR:Marlin
;TIME:13641
;Filament used: 7.81457m
;Layer height: 0.15
;MINX:75.9
;MINY:75.949
;MINZ:0.3
;MAXX:144.1
;MAXY:144.051
;MAXZ:37.05
;Generated with Cura_SteamEngine 5.2.1
M140 S60
M105
M190 S60
M104 S210
M105
M109 S210
M82 ;absolute extrusion mode
G28 ;Home
G1 Z15.0 F2000 ;Move the platform
G92 E0
G92 E0
G1 F2400 E-3
;LAYER_COUNT:246
;LAYER:0
M107
M204 S1000
G0 F7500 X79.035 Y77.353 Z0.3
;TYPE:SKIRT
G1 F2400 E0
G1 F1500 X79.544 Y76.86 E0.03535
G1 X79.933 Y76.538 E0.06055
G1 X80.369 Y76.282 E0.08577
G1 X80.84 Y76.097 E0.11102
G1 X81.334 Y75.989 E0.13624
G1 X81.709 Y75.96 E0.15501
G1 X82.298 Y75.949 E0.1844
G1 X137.573 Y75.95 E2.94208
G1 X138.284 Y75.96 E2.97756
G1 X138.787 Y76.007 E3.00276
G1 X139.277 Y76.133 E3.028
G1 X139.741 Y76.334 E3.05323
G1 X140.167 Y76.606 E3.07845
G1 X140.499 Y76.895 E3.10041
G1 X142.669 Y79.06 E3.25333
G1 X143.14 Y79.547 E3.28714
G1 X143.462 Y79.937 E3.31237
G1 X143.718 Y80.373 E3.33759
G1 X143.902 Y80.844 E3.36282
G1 X144.01 Y81.338 E3.38805
G1 X144.039 Y81.715 E3.40691
G1 X144.05 Y82.33 E3.4376
G1 X144.051 Y137.572 E6.19363
G1 X144.041 Y138.277 E6.22881
G1 X143.994 Y138.781 E6.25406
G1 X143.868 Y139.27 E6.27926
G1 X143.666 Y139.734 E6.3045
G1 X143.395 Y140.16 E6.32969
G1 X143.152 Y140.446 E6.34842
G1 X142.833 Y140.779 E6.37142
G1 X140.952 Y142.659 E6.5041
G1 X140.458 Y143.138 E6.53843
G1 X140.068 Y143.461 E6.5637
G1 X139.632 Y143.717 E6.58892
G1 X139.162 Y143.902 E6.61412
G1 X138.668 Y144.011 E6.63936
G1 X138.287 Y144.04 E6.65842
G1 X137.673 Y144.051 E6.68906
G1 X82.422 Y144.05 E9.44554
G1 X81.72 Y144.039 E9.48057
G1 X81.217 Y143.991 E9.50578
G1 X80.727 Y143.864 E9.53103
G1 X80.264 Y143.662 E9.55623
G1 X79.838 Y143.39 E9.58145
G1 X79.552 Y143.146 E9.60021
G1 X79.118 Y142.728 E9.63027
G1 X77.333 Y140.942 E9.75624
G1 X76.862 Y140.456 E9.79001
G1 X76.54 Y140.066 E9.81524
G1 X76.283 Y139.631 E9.84045
G1 X76.098 Y139.16 E9.86569
G1 X75.99 Y138.666 E9.89092
G1 X75.961 Y138.286 E9.90994
G1 X75.95 Y137.672 E9.94057
G1 X75.95 Y82.427 E12.69676
G1 X75.96 Y81.725 E12.73178
G1 X76.007 Y81.222 E12.75699
G1 X76.133 Y80.732 E12.78223
G1 X76.335 Y80.269 E12.80743
G1 X76.606 Y79.842 E12.83266
G1 X76.814 Y79.595 E12.84877
G1 X77.034 Y79.36 E12.86483
G1 X79.035 Y77.353 E13.00623
G1 F2400 E10.00623
;MESH:Head-case.obj
G0 F7500 X78.489 Y81.492
G0 X78.485 Y83.616
G0 X82.016 Y140.25
;TYPE:WALL-INNER
G1 F2400 E13.00623
G1 F1500 X137.985 Y140.251 E15.79853
G1 X140.251 Y137.985 E15.95841
G1 X140.251 Y83.618 E18.67079
G1 X140.25 Y82.016 E18.75071
G1 X137.984 Y79.75 E18.91059
G1 X82.015 Y79.75 E21.7029
G1 X79.751 Y82.016 E21.86271
G1 X79.75 Y137.984 E24.65496
G1 X82.016 Y140.25 E24.81484
G0 F7500 X81.85 Y140.65
;TYPE:WALL-OUTER
G1 F1500 X138.151 Y140.651 E27.62371
G1 X140.651 Y138.151 E27.8001
G1 X140.651 Y83.618 E30.52076
G1 X140.65 Y81.85 E30.60896
G1 X138.15 Y79.35 E30.78535
G1 X81.849 Y79.35 E33.59422
G1 X79.351 Y81.85 E33.77054
G1 X79.35 Y138.15 E36.57936
G1 X81.85 Y140.65 E36.75575
G0 F7500 X82.05 Y140.65
G0 X82.166 Y139.89
;TYPE:SKIN
G1 F1500 X137.835 Y139.891 E39.53308
G1 X139.891 Y137.835 E39.67815
G1 X139.89 Y82.166 E42.45548
G1 X137.834 Y80.11 E42.60054
G1 X82.165 Y80.11 E45.37788
G1 X80.111 Y82.166 E45.52287
G1 X80.11 Y137.834 E48.30016
G1 X82.166 Y139.89 E48.44522
G0 F7500 X82.554 Y139.688
G1 F1500 X80.31 Y137.444 E48.60355
G0 F7500 X80.31 Y136.878
G1 F1500 X83.12 Y139.688 E48.80181
G0 F7500 X83.686 Y139.688
G1 F1500 X80.31 Y136.313 E49.03997
G0 F7500 X80.31 Y135.747
G1 F1500 X84.251 Y139.688 E49.31803
G0 F7500 X84.817 Y139.688
G1 F1500 X80.31 Y135.181 E49.63602
G0 F7500 X80.31 Y134.616
G1 F1500 X85.383 Y139.688 E49.99391
G0 F7500 X85.948 Y139.688
G1 F1500 X80.31 Y134.05 E50.39171
G0 F7500 X80.31 Y133.484
G1 F1500 X86.514 Y139.688 E50.82943
G0 F7500 X87.08 Y139.688
G1 F1500 X80.31 Y132.919 E51.30706
G0 F7500 X80.31 Y132.353
G1 F1500 X87.645 Y139.688 E51.82458
G0 F7500 X88.211 Y139.688
G1 F1500 X80.31 Y131.787 E52.38204
G0 F7500 X80.31 Y131.222
G1 F1500 X88.777 Y139.688 E52.9794
G0 F7500 X89.342 Y139.688
G1 F1500 X80.31 Y130.656 E53.61665
G0 F7500 X80.31 Y130.09
G1 F1500 X89.908 Y139.688 E54.29384
G0 F7500 X90.474 Y139.688
G1 F1500 X80.31 Y129.524 E55.01097
G0 F7500 X80.31 Y128.959
G1 F1500 X91.039 Y139.688 E55.76796
G0 F7500 X91.605 Y139.688
G1 F1500 X80.31 Y128.393 E56.56488
G0 F7500 X80.31 Y127.827
G1 F1500 X92.171 Y139.688 E57.40174
G0 F7500 X92.737 Y139.688
G1 F1500 X80.31 Y127.262 E58.27849
G0 F7500 X80.31 Y126.696
G1 F1500 X93.302 Y139.688 E59.19515
G0 F7500 X93.868 Y139.688
G1 F1500 X80.31 Y126.13 E60.15174
G0 F7500 X80.31 Y125.565
G1 F1500 X94.434 Y139.688 E61.14823
G0 F7500 X94.999 Y139.688
G1 F1500 X80.31 Y124.999 E62.18462
G0 F7500 X80.31 Y124.433
G1 F1500 X95.565 Y139.688 E63.26094
G0 F7500 X96.131 Y139.688
G1 F1500 X80.31 Y123.868 E64.37716
G0 F7500 X80.31 Y123.302
G1 F1500 X96.696 Y139.688 E65.53328
G0 F7500 X97.262 Y139.688
G1 F1500 X80.31 Y122.736 E66.72934
G0 F7500 X80.31 Y122.171
G1 F1500 X97.828 Y139.688 E67.96529
G0 F7500 X98.393 Y139.688
G1 F1500 X80.31 Y121.605 E69.24115
G0 F7500 X80.31 Y121.039
G1 F1500 X98.959 Y139.688 E70.55693
G0 F7500 X99.525 Y139.688
G1 F1500 X80.31 Y120.474 E71.91262
G0 F7500 X80.31 Y119.908
G1 F1500 X100.09 Y139.688 E73.30821
G0 F7500 X100.656 Y139.688
G1 F1500 X80.31 Y119.342 E74.74373
G0 F7500 X80.31 Y118.776
G1 F1500 X101.222 Y139.688 E76.21918
G0 F7500 X101.788 Y139.688
G1 F1500 X80.31 Y118.211 E77.73453
G0 F7500 X80.31 Y117.645
G1 F1500 X102.353 Y139.688 E79.28979
G0 F7500 X102.919 Y139.688
G1 F1500 X80.31 Y117.079 E80.88497
G0 F7500 X80.31 Y116.514
G1 F1500 X103.485 Y139.688 E82.52006
G0 F7500 X104.05 Y139.688
G1 F1500 X80.31 Y115.948 E84.19505
G0 F7500 X80.31 Y115.382
G1 F1500 X104.616 Y139.688 E85.90997
G0 F7500 X105.182 Y139.688
G1 F1500 X80.31 Y114.817 E87.66478
G0 F7500 X80.31 Y114.251
G1 F1500 X105.747 Y139.688 E89.4595
G0 F7500 X106.313 Y139.688
G1 F1500 X80.31 Y113.685 E91.29415
G0 F7500 X80.31 Y113.12
G1 F1500 X106.879 Y139.688 E93.1687
G0 F7500 X107.444 Y139.688
G1 F1500 X80.31 Y112.554 E95.08315
G0 F7500 X80.31 Y111.988
G1 F1500 X108.01 Y139.688 E97.03754
G0 F7500 X108.576 Y139.688
G1 F1500 X80.31 Y111.423 E99.03182
G0 F7500 X80.31 Y110.857
G1 F1500 X109.141 Y139.688 E101.06601
G0 F7500 X109.707 Y139.688
G1 F1500 X80.31 Y110.291 E103.14012
G0 F7500 X80.31 Y109.726
G1 F1500 X110.274 Y139.689 E105.25421
G0 F7500 X110.839 Y139.689
G1 F1500 X80.31 Y109.16 E107.4082
G0 F7500 X80.31 Y108.594
G1 F1500 X111.405 Y139.689 E109.60212
G0 F7500 X111.971 Y139.689
G1 F1500 X80.31 Y108.028 E111.83597
G0 F7500 X80.31 Y107.463
G1 F1500 X112.536 Y139.689 E114.10969
G0 F7500 X113.102 Y139.689
G1 F1500 X80.31 Y106.897 E116.42334
G0 F7500 X80.31 Y106.331
G1 F1500 X113.668 Y139.689 E118.77693
G0 F7500 X114.233 Y139.689
G1 F1500 X80.31 Y105.766 E121.17038
G0 F7500 X80.31 Y105.2
G1 F1500 X114.799 Y139.689 E123.60376
G0 F7500 X115.365 Y139.689
G1 F1500 X80.31 Y104.634 E126.07708
G0 F7500 X80.31 Y104.069
G1 F1500 X115.93 Y139.689 E128.59027
G0 F7500 X116.496 Y139.689
G1 F1500 X80.31 Y103.503 E131.14339
G0 F7500 X80.31 Y102.937
G1 F1500 X117.062 Y139.689 E133.73644
G0 F7500 X117.627 Y139.689
G1 F1500 X80.31 Y102.372 E136.36935
G0 F7500 X80.31 Y101.806
G1 F1500 X118.193 Y139.689 E139.0422
G0 F7500 X118.759 Y139.689
G1 F1500 X80.31 Y101.24 E141.75499
G0 F7500 X80.31 Y100.675
G1 F1500 X119.324 Y139.689 E144.50764
G0 F7500 X119.89 Y139.689
G1 F1500 X80.31 Y100.109 E147.30022
G0 F7500 X80.31 Y99.543
G1 F1500 X120.456 Y139.689 E150.13274
G0 F7500 X121.022 Y139.689
G1 F1500 X80.31 Y98.977 E153.00519
G0 F7500 X80.31 Y98.412
G1 F1500 X121.587 Y139.689 E155.9175
G0 F7500 X122.153 Y139.689
G1 F1500 X80.31 Y97.846 E158.86975
G0 F7500 X80.31 Y97.28
G1 F1500 X122.719 Y139.689 E161.86194
G0 F7500 X123.284 Y139.689
G1 F1500 X80.31 Y96.715 E164.89398
G0 F7500 X80.31 Y96.149
G1 F1500 X123.85 Y139.689 E167.96597
G0 F7500 X124.416 Y139.689
G1 F1500 X80.31 Y95.583 E171.07788
G0 F7500 X80.31 Y95.018
G1 F1500 X124.981 Y139.689 E174.22966
G0 F7500 X125.547 Y139.689
G1 F1500 X80.31 Y94.452 E177.42138
G0 F7500 X80.31 Y93.886
G1 F1500 X126.113 Y139.689 E180.65303
G0 F7500 X126.678 Y139.689
G1 F1500 X80.31 Y93.321 E183.92454
G0 F7500 X80.31 Y92.755
G1 F1500 X127.244 Y139.689 E187.23599
G0 F7500 X127.81 Y139.689
G1 F1500 X80.31 Y92.189 E190.58737
G0 F7500 X80.31 Y91.624
G1 F1500 X128.375 Y139.689 E193.97861
G0 F7500 X128.941 Y139.689
G1 F1500 X80.31 Y91.058 E197.40979
G0 F7500 X80.31 Y90.492
G1 F1500 X129.507 Y139.689 E200.88091
G0 F7500 X130.072 Y139.689
G1 F1500 X80.31 Y89.927 E204.39189
G0 F7500 X80.31 Y89.361
G1 F1500 X130.638 Y139.689 E207.9428
G0 F7500 X131.204 Y139.689
G1 F1500 X80.31 Y88.795 E211.53365
G0 F7500 X80.31 Y88.229
G1 F1500 X131.77 Y139.689 E215.16443
G0 F7500 X132.335 Y139.689
G1 F1500 X80.31 Y87.664 E218.83507
G0 F7500 X80.31 Y87.098
G1 F1500 X132.901 Y139.689 E222.54565
G0 F7500 X133.467 Y139.689
G1 F1500 X80.31 Y86.532 E226.29616
G0 F7500 X80.31 Y85.967
G1 F1500 X134.032 Y139.689 E230.08654
G0 F7500 X134.598 Y139.689
G1 F1500 X80.31 Y85.401 E233.91685
G0 F7500 X80.31 Y84.835
G1 F1500 X135.164 Y139.689 E237.7871
G0 F7500 X135.729 Y139.689
G1 F1500 X80.31 Y84.27 E241.69721
G0 F7500 X80.31 Y83.704
G1 F1500 X136.295 Y139.689 E245.64725
G0 F7500 X136.861 Y139.689
G1 F1500 X80.31 Y83.138 E249.63723
G0 F7500 X80.31 Y82.573
G1 F1500 X137.426 Y139.689 E253.66707
G0 F7500 X137.872 Y139.569
G1 F1500 X80.43 Y82.127 E257.71992
G0 F7500 X80.713 Y81.844
G1 F1500 X138.155 Y139.286 E261.77276
G0 F7500 X138.438 Y139.003
G1 F1500 X80.996 Y81.561 E265.8256
G0 F7500 X81.279 Y81.279
G1 F1500 X138.72 Y138.72 E269.87838
G0 F7500 X139.003 Y138.438
G1 F1500 X81.561 Y80.995 E273.93125
G0 F7500 X81.844 Y80.712
G1 F1500 X139.286 Y138.155 E277.98413
G0 F7500 X139.569 Y137.872
G1 F1500 X82.126 Y80.429 E282.03705
G0 F7500 X82.573 Y80.31
G1 F1500 X139.69 Y137.427 E286.06696
G0 F7500 X139.69 Y136.861
G1 F1500 X83.138 Y80.31 E290.05697
G0 F7500 X83.704 Y80.31
G1 F1500 X139.69 Y136.296 E294.00709
G0 F7500 X139.69 Y135.73
G1 F1500 X84.27 Y80.31 E297.91727
G0 F7500 X84.835 Y80.31
G1 F1500 X139.69 Y135.164 E301.78755
G0 F7500 X139.69 Y134.599
G1 F1500 X85.401 Y80.31 E305.61793
G0 F7500 X85.967 Y80.31
G1 F1500 X139.69 Y134.033 E309.40838
G0 F7500 X139.69 Y133.467
G1 F1500 X86.532 Y80.31 E313.15893
G0 F7500 X87.098 Y80.31
G1 F1500 X139.69 Y132.902 E316.86958
G0 F7500 X139.69 Y132.336
G1 F1500 X87.664 Y80.31 E320.54029
G0 F7500 X88.229 Y80.31
G1 F1500 X139.69 Y131.77 E324.17111
G0 F7500 X139.69 Y131.205
G1 F1500 X88.795 Y80.31 E327.76203
G0 F7500 X89.361 Y80.31
G1 F1500 X139.69 Y130.639 E331.31301
G0 F7500 X139.69 Y130.073
G1 F1500 X89.927 Y80.31 E334.82406
G0 F7500 X90.492 Y80.31
G1 F1500 X139.69 Y129.508 E338.29524
G0 F7500 X139.69 Y128.942
G1 F1500 X91.058 Y80.31 E341.72649
G0 F7500 X91.624 Y80.31
G1 F1500 X139.69 Y128.376 E345.11781
G0 F7500 X139.69 Y127.81
G1 F1500 X92.189 Y80.31 E348.46923
G0 F7500 X92.755 Y80.31
G1 F1500 X139.69 Y127.245 E351.78074
G0 F7500 X139.69 Y126.679
G1 F1500 X93.321 Y80.31 E355.05233
G0 F7500 X93.886 Y80.31
G1 F1500 X139.69 Y126.113 E358.28401
G0 F7500 X139.69 Y125.548
G1 F1500 X94.452 Y80.31 E361.4758
G0 F7500 X95.018 Y80.31
G1 F1500 X139.69 Y124.982 E364.62765
G0 F7500 X139.69 Y124.416
G1 F1500 X95.583 Y80.31 E367.7396
G0 F7500 X96.149 Y80.31
G1 F1500 X139.69 Y123.851 E370.81165
G0 F7500 X139.69 Y123.285
G1 F1500 X96.715 Y80.31 E373.84377
G0 F7500 X97.28 Y80.31
G1 F1500 X139.69 Y122.719 E376.83599
G0 F7500 X139.69 Y122.154
G1 F1500 X97.846 Y80.31 E379.78831
G0 F7500 X98.412 Y80.31
G1 F1500 X139.69 Y121.588 E382.7007
G0 F7500 X139.69 Y121.022
G1 F1500 X98.977 Y80.31 E385.57318
G0 F7500 X99.543 Y80.31
G1 F1500 X139.69 Y120.457 E388.40577
G0 F7500 X139.69 Y119.891
G1 F1500 X100.109 Y80.31 E391.19842
G0 F7500 X100.675 Y80.31
G1 F1500 X139.69 Y119.325 E393.95114
G0 F7500 X139.69 Y118.759
G1 F1500 X101.24 Y80.31 E396.66396
G0 F7500 X101.806 Y80.31
G1 F1500 X139.69 Y118.194 E399.33688
G0 F7500 X139.69 Y117.628
G1 F1500 X102.372 Y80.31 E401.96987
G0 F7500 X102.937 Y80.31
G1 F1500 X139.69 Y117.062 E404.56296
G0 F7500 X139.69 Y116.497
G1 F1500 X103.503 Y80.31 E407.11614
G0 F7500 X104.069 Y80.31
G1 F1500 X139.69 Y115.931 E409.6294
G0 F7500 X139.69 Y115.365
G1 F1500 X104.634 Y80.31 E412.10275
G0 F7500 X105.2 Y80.31
G1 F1500 X139.69 Y114.8 E414.53621
G0 F7500 X139.69 Y114.234
G1 F1500 X105.766 Y80.31 E416.92973
G0 F7500 X106.331 Y80.31
G1 F1500 X139.69 Y113.668 E419.28335
G0 F7500 X139.69 Y113.103
G1 F1500 X106.897 Y80.31 E421.59708
G0 F7500 X107.463 Y80.31
G1 F1500 X139.69 Y112.537 E423.87087
G0 F7500 X139.69 Y111.971
G1 F1500 X108.028 Y80.31 E426.10476
G0 F7500 X108.594 Y80.31
G1 F1500 X139.69 Y111.406 E428.29875
G0 F7500 X139.69 Y110.84
G1 F1500 X109.16 Y80.31 E430.4528
G0 F7500 X109.726 Y80.31
G1 F1500 X139.69 Y110.274 E432.56692
G0 F7500 X139.689 Y109.708
G1 F1500 X110.291 Y80.31 E434.64111
G0 F7500 X110.857 Y80.31
G1 F1500 X139.689 Y109.142 E436.67537
G0 F7500 X139.689 Y108.576
G1 F1500 X111.423 Y80.31 E438.66968
G0 F7500 X111.988 Y80.31
G1 F1500 X139.689 Y108.011 E440.62414
G0 F7500 X139.689 Y107.445
G1 F1500 X112.554 Y80.31 E442.53866
G0 F7500 X113.12 Y80.31
G1 F1500 X139.689 Y106.879 E444.41325
G0 F7500 X139.689 Y106.314
G1 F1500 X113.685 Y80.31 E446.24797
G0 F7500 X114.251 Y80.31
G1 F1500 X139.689 Y105.748 E448.04276
G0 F7500 X139.689 Y105.182
G1 F1500 X114.817 Y80.31 E449.79761
G0 F7500 X115.382 Y80.31
G1 F1500 X139.689 Y104.617 E451.5126
G0 F7500 X139.689 Y104.051
G1 F1500 X115.948 Y80.31 E453.18766
G0 F7500 X116.514 Y80.31
G1 F1500 X139.689 Y103.485 E454.82278
G0 F7500 X139.689 Y102.92
G1 F1500 X117.079 Y80.31 E456.41804
G0 F7500 X117.645 Y80.31
G1 F1500 X139.689 Y102.354 E457.97336
G0 F7500 X139.689 Y101.788
G1 F1500 X118.211 Y80.31 E459.48875
G0 F7500 X118.776 Y80.31
G1 F1500 X139.689 Y101.223 E460.96427
G0 F7500 X139.689 Y100.657
G1 F1500 X119.342 Y80.31 E462.39986
G0 F7500 X119.908 Y80.31
G1 F1500 X139.689 Y100.091 E463.79552
G0 F7500 X139.689 Y99.525
G1 F1500 X120.474 Y80.31 E465.15124
G0 F7500 X121.039 Y80.31
G1 F1500 X139.689 Y98.96 E466.4671
G0 F7500 X139.689 Y98.394
G1 F1500 X121.605 Y80.31 E467.74303
G0 F7500 X122.171 Y80.31
G1 F1500 X139.689 Y97.828 E468.97901
G0 F7500 X139.689 Y97.263
G1 F1500 X122.736 Y80.31 E470.17514
G0 F7500 X123.302 Y80.31
G1 F1500 X139.689 Y96.697 E471.33133
G0 F7500 X139.689 Y96.131
G1 F1500 X123.868 Y80.31 E472.44759
G0 F7500 X124.433 Y80.31
G1 F1500 X139.689 Y95.566 E473.52398
G0 F7500 X139.689 Y95
G1 F1500 X124.999 Y80.31 E474.56044
G0 F7500 X125.565 Y80.31
G1 F1500 X139.689 Y94.434 E475.55697
G0 F7500 X139.689 Y93.869
G1 F1500 X126.13 Y80.31 E476.51363
G0 F7500 X126.696 Y80.31
G1 F1500 X139.689 Y93.303 E477.43035
G0 F7500 X139.689 Y92.737
G1 F1500 X127.262 Y80.31 E478.30714
G0 F7500 X127.827 Y80.31
G1 F1500 X139.689 Y92.172 E479.14407
G0 F7500 X139.689 Y91.606
G1 F1500 X128.393 Y80.31 E479.94107
G0 F7500 X128.959 Y80.31
G1 F1500 X139.689 Y91.04 E480.69813
G0 F7500 X139.689 Y90.475
G1 F1500 X129.524 Y80.31 E481.41532
G0 F7500 X130.09 Y80.31
G1 F1500 X139.689 Y89.909 E482.09258
G0 F7500 X139.689 Y89.343
G1 F1500 X130.656 Y80.31 E482.72991
G0 F7500 X131.222 Y80.31
G1 F1500 X139.689 Y88.777 E483.3273
G0 F7500 X139.689 Y88.212
G1 F1500 X131.787 Y80.31 E483.88483
G0 F7500 X132.353 Y80.31
G1 F1500 X139.689 Y87.646 E484.40243
G0 F7500 X139.689 Y87.08
G1 F1500 X132.919 Y80.31 E484.88009
G0 F7500 X133.484 Y80.31
G1 F1500 X139.689 Y86.515 E485.31788
G0 F7500 X139.689 Y85.949
G1 F1500 X134.05 Y80.31 E485.71574
G0 F7500 X134.616 Y80.31
G1 F1500 X139.689 Y85.383 E486.07367
G0 F7500 X139.689 Y84.818
G1 F1500 X135.181 Y80.31 E486.39174
G0 F7500 X135.747 Y80.31
G1 F1500 X139.689 Y84.252 E486.66986
G0 F7500 X139.689 Y83.686
G1 F1500 X136.313 Y80.31 E486.90806
G0 F7500 X136.878 Y80.31
G1 F1500 X139.689 Y83.121 E487.10639
G0 F7500 X139.689 Y82.555
G1 F1500 X137.444 Y80.31 E487.26479
G1 F2400 E484.26479
;MESH:NONMESH
G0 F300 X137.444 Y80.31 Z0.45
G0 F7500 X137.443 Y79.85
G0 X82.083 Y79.914
G0 X79.915 Y82.084
G0 X79.914 Y137.916
G0 X82.001 Y140.092
G1 F2400 E487.26479
G0 F7500 X81.923 Y140.475
;TIME_ELAPSED:414.281749
;LAYER:1
